!!!!SEGMENT: s-uu--vok-mus-i-hs-22-15_forster-kaspar--redemptor-deus.krn
!!!cenid: 16xx:1705
!!!COM: Förster, Kaspar
!!!COM-rismID: pe30006147
!!!CDT: ~1616-1673/02/02
!!!CNT: German
!!!OTL: Redemptor Deus
!!!PDT:
!!!AGN:
!!!SMS-siglum: S-Uu
!!!SMS-shelfmark: Vok. mus. i hs. 22:15
!!!SMS-shelfwork: W
!!!SMS-variant:
!!!SMS-altvar:
!!!NIFC-rismSourceID: 190008736
!!!NIFC-rismChildID: 190008736
!!!NIFC-islandoraID: none
!!!URL-pdf-islandora:
!!!URL-scan: https://www2.musik.uu.se/duben/presentationSource1.php?Select_Dnr=855 @EN{Scan on Academica} @PL{Skany w zewnętrznej bibliotece cyfrowej}
!!!ONB-nifc: UWAGA: poszczególne partie dostępne po kliknięciu w „browse part”. Informacje nt stron tytułowych w opisie na stronie lub na RISM.
!!!AIN: 1 organ 2 soprn 2 violn
!!!key: e
**kern	**fba	**kern	**dynam	**kern	**dynam	**kern	**text	**kern	**text
*part5	*part5	*part4	*part4	*part3	*part3	*part2	*part2	*part1	*part1
*staff5	*	*staff4	*	*staff3	*	*staff2	*staff2	*staff1	*staff1
*I"Organo	*	*I"Violino II	*	*I"Violino 1mo	*	*I"Canto 2do	*	*I"Canto 1mo	*
*I'Org.	*	*I'Vn II	*	*I'Vl 1	*	*I'C 2	*	*I'C 1	*
*Iorgan	*	*Ivioln	*	*Ivioln	*	*Isoprn	*	*Isoprn	*
*ICklav	*	*ICstr	*	*ICstr	*	*ICvox	*	*ICvox	*
*IGbc	*	*	*	*	*	*	*	*	*
*clefF4	*	*clefG2	*	*clefG2	*	*clefC1	*	*clefC1	*
*k[]	*	*k[]	*	*k[]	*	*k[]	*	*k[]	*
*e:	*	*e:	*	*e:	*	*e:	*	*e:	*
*M2/1	*	*M2/1	*	*M2/1	*	*M2/1	*	*M2/1	*
*	*	*met(C|)	*	*met(C|)	*	*met(C|)	*	*met(C|)	*
=1-	=1-	=1-	=1-	=1-	=1-	=1-	=1-	=1-	=1-
!LO:TX:b:t=Redemptor Deús	!	!LO:TX:b:t=Redemptor Deús	!	!LO:TX:b:t=Redemptor Deús	!	!LO:TX:b:t=Redemptor&colon;	!	!	!
!	!	!	!	!	!	!LO:TX:a:t=11	!	!LO:TX:a:t=9	!
(1E	-	1.g	.	4r	.	00r	.	00r	.
.	.	.	.	2b/	.	.	.	.	.
.	.	.	.	4e/	.	.	.	.	.
2E)	6	.	.	2.cc\	.	.	.	.	.
!	!	!LO:TX:t=P:problem:kreska pseudotaktowa	!	!	!	!	!	!	!
2F#X\	-5r	(2a/	.	.	.	.	.	.	.
!	!	!	!	!LO:TX:t=P:problem:kreska pseudotaktowa	!	!	!	!	!
.	.	.	.	4b/	.	.	.	.	.
=2-	=2-	=2-	=2-	=2-	=2-	=2-	=2-	=2-	=2-
2G\	9:8	4a/)	.	2.b/	.	.	.	.	.
.	.	8g/L	.	.	.	.	.	.	.
.	.	8f#X/J	.	.	.	.	.	.	.
2c\	7:6	2e/	.	.	.	.	.	.	.
.	.	.	.	4a/	.	.	.	.	.
!LO:TX:t=P:problem:kreska pseudotaktowa	!	!	!	!	!	!	!	!	!
1B	7:6:#5r 4:3	4d#X/	.	4.a/	.	.	.	.	.
.	.	2e/	.	.	.	.	.	.	.
.	.	.	.	8g/	.	.	.	.	.
!	!	!	!	!LO:TX:t=P:problem:kreska pseudotaktowa	!	!	!	!	!
.	.	.	.	2f#X/	.	.	.	.	.
!	!	!LO:TX:t=P:problem:kreska pseudotaktowa	!	!	!	!	!	!	!
.	.	4d#X/	.	.	.	.	.	.	.
=3-	=3-	=3-	=3-	=3-	=3-	=3-	=3-	=3-	=3-
2c\	6	2e/	.	4r	.	00r	.	00r	.
.	.	.	.	4a/	.	.	.	.	.
2B\	3:6	4dny/	.	4.b/	.	.	.	.	.
.	.	2g/	.	.	.	.	.	.	.
.	.	.	.	8dd\	.	.	.	.	.
2A\	7:6	.	.	2cc\	.	.	.	.	.
.	.	4f#X/	.	.	.	.	.	.	.
!LO:TX:t=P:problem:kreska pseudotaktowa	!	!	!	!	!	!	!	!	!
2G\	.	8g/L	.	8b\L	.	.	.	.	.
.	.	8a/J	.	8cc\	.	.	.	.	.
.	.	8b\L	.	8dd\	.	.	.	.	.
!	!	!LO:TX:t=P:problem:kreska pseudotaktowa	!	!LO:TX:t=P:problem:kreska pseudotaktowa	!	!	!	!	!
.	.	8cc#X\J	.	8ee\J	.	.	.	.	.
=4-	=4-	=4-	=4-	=4-	=4-	=4-	=4-	=4-	=4-
2D/	#	8dd\L	.	8ff#X\L	.	.	.	.	.
.	.	8ee\	.	8gg\	.	.	.	.	.
.	.	8ff#X\	.	8aa\	.	.	.	.	.
.	.	8gg\J	.	8bb\J	.	.	.	.	.
2AA/	-	8aa\L	.	8ccc\L	.	.	.	.	.
.	.	8gg\	.	8bb\	.	.	.	.	.
.	.	8ff#X\	.	8aa\	.	.	.	.	.
!	!	!LO:TX:t=P:problem:kreska pseudotaktowa	!	!LO:TX:t=P:problem:kreska pseudotaktowa	!	!	!	!	!
.	.	8ee\J	.	8gg\J	.	.	.	.	.
4BB/	5	4dd#X\	.	4ff#X\	.	.	.	.	.
4GG/	#	4b/	.	8r	.	.	.	.	.
.	.	.	.	8bb\	.	.	.	.	.
!LO:TX:t=P:problem:kreska pseudotaktowa	!	!	!	!	!	!	!	!	!
2AA/	#	8cc#X\L	.	4.aa\	.	.	.	.	.
.	.	8dd#X\J	.	.	.	.	.	.	.
!	!	!LO:TX:t=P:problem:kreska pseudotaktowa	!	!	!	!	!	!	!
!	!	!LO:SIC:v:t=custos dd	!	!	!	!	!	!	!
.	.	4ee\	.	.	.	.	.	.	.
!	!	!	!	!LO:TX:t=P:problem:kreska pseudotaktowa	!	!	!	!	!
!	!	!	!	!LO:SIC:v:t=custos ff	!	!	!	!	!
.	.	.	.	8gg\	.	.	.	.	.
!	!	!LO:LB:g=original	!	!LO:LB:g=original	!	!	!	!	!
=5-	=5-	=5-	=5-	=5-	=5-	=5-	=5-	=5-	=5-
1BB	#:# 3:4:3	4dd#X\	.	2.ff#X\	.	0r	.	1r	.
.	.	2ee\	.	.	.	.	.	.	.
.	.	4dd#X\	.	4ff#\	.	.	.	.	.
!LO:TX:t=P:problem:kreska pseudotaktowa	!	!	!	!	!	!	!	!	!
1E	-	2ee\	.	2gg\	.	.	.	2r	.
.	.	2r	.	2r	.	.	.	2b\	Re-
=6-	=6-	=6-	=6-	=6-	=6-	=6-	=6-	=6-	=6-
!	!	!LO:TX:b:t=Red&colon;	!	!LO:TX:b:t=Red	!	!	!	!	!
!	!	!LO:TX:a:t=10	!	!LO:TX:a:t=10	!	!LO:TX:t=P:problem:kreska pseudotaktowa	!	!	!
2.E\	-	00r	.	00r	.	1r	.	4.b\	-dem-
.	.	.	.	.	.	.	.	8e/	-ptor
!	!	!	!	!	!	!	!	!LO:TX:t=P:problem:kreska pseudotaktowa	!
.	.	.	.	.	.	.	.	2cc\	De-
4F#X\	.	.	.	.	.	.	.	.	.
!LO:TX:t=P:problem:kreska pseudotaktowa	!	!	!	!	!	!	!	!	!
1G	.	.	.	.	.	2r	.	2b\	-ús,
.	.	.	.	.	.	4r	.	4r	.
.	.	.	.	.	.	8g/	Qúi	8b\	qúi
!	!	!	!	!	!	!LO:TX:t=P:problem:kreska pseudotaktowa	!	!	!
.	.	.	.	.	.	8g/	es	8b\	es
!LO:LB:g=original	!	!	!	!	!	!	!	!	!
=7-	=7-	=7-	=7-	=7-	=7-	=7-	=7-	=7-	=7-
4d\	#	.	.	.	.	4f#X/	vi-	4a\	vi-
4B\	# 4	.	.	.	.	8d#X/	-ta	8b\	-ta
.	.	.	.	.	.	8d#/	vi-	8b\	vi-
!LO:TX:t=P:problem:kreska pseudotaktowa	!	!	!	!	!	!	!	!	!
2c\	7:6	.	.	.	.	4.e/	-úen-	4.b\	-úen-
!	!	!	!	!	!	!LO:TX:t=P:problem:kreska pseudotaktowa	!	!LO:TX:t=P:problem:kreska pseudotaktowa	!
.	.	.	.	.	.	8e/	-ti-	8a\	-ti-
4B\	# 5	.	.	.	.	4d#X/	-úm	4b\	-úm,
4BB/	.	.	.	.	.	8r	.	8r	.
.	.	.	.	.	.	8b\	et	8dd\	et
4C/	6:5	.	.	.	.	8a\	ſa-	8cc\	Sa-
.	.	.	.	.	.	8g/	-l(ús)	8b\	-l(ús)
!LO:TX:t=P:problem:kreska pseudotaktowa	!	!	!	!	!	!	!	!	!
4C#X/	.	.	.	.	.	8g/	mo-	8b\	mo-
!	!	!	!	!	!	!LO:TX:t=P:problem:kreska pseudotaktowa	!	!	!
.	.	.	.	.	.	8g/	-ri-	8a\	-ri-
=8-	=8-	=8-	=8-	=8-	=8-	=8-	=8-	=8-	=8-
2D/	4:3	00r	.	00r	.	4.g/	-en-	4.a\	-en-
.	.	.	.	.	.	8f#X/	-ti-	8a\	-ti-
!	!	!	!	!	!	!LO:TX:t=P:problem:kreska pseudotaktowa	!	!LO:TX:t=P:problem:kreska pseudotaktowa	!
!	!	!	!	!	!	!LO:SIC:v:t=custos b	!	!LO:SIC:v:t=custos g	!
2GG/	.	.	.	.	.	2g/	-úm	2b\	-úm
!	!	!	!	!	!	!LO:LB:g=original	!	!	!
2G\	.	.	.	.	.	4r	.	1r	.
.	.	.	.	.	.	8b\	qúi	.	.
.	.	.	.	.	.	8b\	es	.	.
4A\	#	.	.	.	.	4cc#X\	vi-	.	.
!LO:TX:t=P:problem:kreska pseudotaktowa	!	!	!	!	!	!	!	!	!
4B\	#	.	.	.	.	8dd#X\	-ta	.	.
!	!	!	!	!	!	!LO:TX:t=P:problem:kreska pseudotaktowa	!	!	!
.	.	.	.	.	.	8dd#\	vi-	.	.
!	!	!	!	!	!	!	!	!LO:LB:g=original	!
=9-	=9-	=9-	=9-	=9-	=9-	=9-	=9-	=9-	=9-
2c\	.	.	.	.	.	8.ee\	-úen-	2r	.
.	.	.	.	.	.	16ee\	-ti-	.	.
.	.	.	.	.	.	4ee\	-úm	.	.
(2c\	.	.	.	.	.	4r	.	4r	.
.	.	.	.	.	.	8e/	qúi	8g/	qúi
!	!	!	!	!	!	!LO:TX:t=P:problem:kreska pseudotaktowa	!	!LO:TX:t=P:problem:kreska pseudotaktowa	!
.	.	.	.	.	.	8e/	es	8g/	es
4c\)	6 4	.	.	.	.	4f#X/	vi-	4a\	vi-
4B\	6	.	.	.	.	8g/	-ta	8b\	-ta
.	.	.	.	.	.	8g/	vi-	8b\	vi-
4A\	.	.	.	.	.	4a\	-úen-	4.cc\	-úen-
!LO:TX:t=P:problem:kreska pseudotaktowa	!	!	!	!	!	!LO:TX:t=P:problem:kreska pseudotaktowa	!	!	!
4d\	7	.	.	.	.	4f#X/	-ti-	.	.
!	!	!	!	!	!	!	!	!LO:TX:t=P:problem:kreska pseudotaktowa	!
.	.	.	.	.	.	.	.	8cc\	-ti-
=10-	=10-	=10-	=10-	=10-	=10-	=10-	=10-	=10-	=10-
!	!	!LO:TX:t=P:problem:kreska pseudotaktowa	!	!LO:TX:t=P:problem:kreska pseudotaktowa	!	!	!	!	!
2G\	.	0r	.	0r	.	4g/	-úm	4b\	-úm,
.	.	.	.	.	.	8r	.	8r	.
.	.	.	.	.	.	8g/	et	8b\	et
2A\	# 6	.	.	.	.	4.f#X/	ſa-	4.a\	ſa-
!	!	!	!	!	!	!LO:TX:t=P:problem:kreska pseudotaktowa	!	!LO:TX:t=P:problem:kreska pseudotaktowa	!
.	.	.	.	.	.	8e/	-l(ús)	8a\	-l(ús)
!LO:TX:t=P:problem:kreska pseudotaktowa	!	!	!	!	!	!	!	!	!
1B	7:6 3:4:3 #:#	.	.	.	.	4d#X/	mo-	4.a\	mo-
.	.	.	.	.	.	4e/	-ri-	.	.
.	.	.	.	.	.	.	.	8g/	-ri-
.	.	.	.	.	.	4.e/	-en-	4.f#X/	-en-
!	!	!	!	!	!	!LO:TX:t=P:problem:kreska pseudotaktowa	!	!	!
!	!	!	!	!	!	!LO:SIC:v:t=custos e	!	!	!
.	.	.	.	.	.	8d#X/	-ti-	8f#/	-ti-
!	!	!	!	!	!	!LO:LB:g=original	!	!	!
=11-	=11-	=11-	=11-	=11-	=11-	=11-	=11-	=11-	=11-
2.c\	#6 4	4r	.	4r	.	2e/	-úm	2e/	-úm
.	.	8ee\L	.	8gg\L	.	.	.	.	.
.	.	8ee\J	.	8gg\J	.	.	.	.	.
.	.	4ffny\	.	4aa\	.	2r	.	2r	.
!LO:TX:t=P:problem:kreska pseudotaktowa	!	!	!	!	!	!	!	!	!
!LO:SIC:v:t=custos A	!	!LO:TX:t=P:problem:kreska pseudotaktowa	!	!LO:TX:t=P:problem:kreska pseudotaktowa	!	!	!	!	!
4B\	.	4gg\	.	4bb\	.	.	.	.	.
!LO:LB:g=original	!	!	!	!	!	!LO:TX:a:t=5	!	!LO:TX:b:t=5	!
4Fny\ 4A	.	4aa\	.	4.ccc\	.	00r	.	00r	.
4d\	7	4ff#X\	.	.	.	.	.	.	.
.	.	.	.	8ccc\	.	.	.	.	.
!LO:TX:t=P:problem:kreska pseudotaktowa	!	!	!	!	!	!	!	!	!
2G\	.	4gg\	.	4bb\	.	.	.	.	.
.	.	8ddny\L	.	8bb\L	.	.	.	.	.
!	!	!LO:TX:t=P:problem:kreska pseudotaktowa	!	!LO:TX:t=P:problem:kreska pseudotaktowa	!	!	!	!	!
.	.	8dd\J	.	8bb\J	.	.	.	.	.
=12-	=12-	=12-	=12-	=12-	=12-	=12-	=12-	=12-	=12-
2Cny/	6:5	4ccny\	.	4aa\	.	.	.	.	.
.	.	4b/	.	4gg\	.	.	.	.	.
2D/	4:3	4.a/	.	4.gg\	.	.	.	.	.
!	!	!LO:TX:t=P:problem:kreska pseudotaktowa	!	!LO:TX:t=P:problem:kreska pseudotaktowa	!	!	!	!	!
.	.	8a/	.	8ff#X\	.	.	.	.	.
2.G\	6 4	4b/	.	4gg\	.	.	.	.	.
.	.	8b/L	.	8dd\L	.	.	.	.	.
.	.	8b/J	.	8dd\J	.	.	.	.	.
.	.	4cc#X\	.	4ee\	.	.	.	.	.
!LO:TX:t=P:problem:kreska pseudotaktowa	!	!LO:TX:t=P:problem:kreska pseudotaktowa	!	!LO:TX:t=P:problem:kreska pseudotaktowa	!	!	!	!	!
4F#X\	6	4dd\	.	4ff#X\	.	.	.	.	.
=13-	=13-	=13-	=13-	=13-	=13-	=13-	=13-	=13-	=13-
!	!	!	!	!	!	!LO:TX:t=P:problem:kreska pseudotaktowa	!	!LO:TX:t=P:problem:kreska pseudotaktowa	!
4E\	.	4ee\	.	4.gg\	.	.	.	.	.
4A\	7	4cc#X\	.	.	.	.	.	.	.
!	!	!	!	!LO:SIC:v:t=custos ff	!	!	!	!	!
.	.	.	.	8ff#X\	.	.	.	.	.
!	!	!	!	!LO:LB:g=original	!	!	!	!	!
2D/	#	4dd\	.	4ff#X\	.	.	.	.	.
.	.	8dd\L	.	8aa\L	.	.	.	.	.
!	!	!LO:TX:t=P:problem:kreska pseudotaktowa	!	!	!	!	!	!	!
!	!	!LO:SIC:v:t=custos b	!	!LO:TX:t=P:problem:kreska pseudotaktowa	!	!	!	!	!
.	.	8cc#\J	.	8aa\J	.	.	.	.	.
!	!	!LO:LB:g=original	!	!	!	!	!	!	!
4G\	.	8b\L	.	4.gg\	.	1r	.	1r	.
.	.	8cc#\J	.	.	.	.	.	.	.
4D/	.	2dd\	.	.	.	.	.	.	.
.	.	.	.	8ff#\	.	.	.	.	.
!LO:TX:t=P:problem:kreska pseudotaktowa	!	!	!	!	!	!	!	!	!
2A\	4:3	.	.	4.ee\	.	.	.	.	.
.	.	4cc#X\	.	.	.	.	.	.	.
.	.	.	.	8ee\	.	.	.	.	.
=14-	=14-	=14-	=14-	=14-	=14-	=14-	=14-	=14-	=14-
2D\	#	2dd\	.	2ff#X\	.	4r	.	4r	.
.	.	.	.	.	.	4f#X/	et	4a\	et
2G\	.	4r	.	4r	.	4g/	ſa-	4b\	ſa-
!	!	!	!	!	!	!	!	!LO:TX:t=P:problem:kreska pseudotaktowa	!
!	!	!LO:TX:t=P:problem:kreska pseudotaktowa	!	!LO:TX:t=P:problem:kreska pseudotaktowa	!	!LO:TX:t=P:problem:kreska pseudotaktowa	!	!LO:SIC:v:t=custos g	!
.	.	4b/	.	4dd\	.	4g/	-l(ús)	4b\	-l(ús)
!	!	!	!	!	!	!	!	!LO:LB:g=original	!
2C/	.	4ccny\	.	4ee\	.	4r	.	4r	.
.	.	8cc\L	.	8ee\L	.	8r	.	8r	.
.	.	8cc\J	.	8gg\J	.	8e/	et	8g/	et
!LO:TX:t=P:problem:kreska pseudotaktowa	!	!	!	!LO:TX:t=P:problem:kreska pseudotaktowa	!	!	!	!	!
(2AA/	.	2cc\	.	(2aa\	.	4.a\	ſa-	4.cc\	Sa-
!	!	!	!	!	!	!LO:TX:t=P:problem:kreska pseudotaktowa	!	!LO:TX:t=P:problem:kreska pseudotaktowa	!
.	.	.	.	.	.	8g/	-l(ús)	8b\	-lús
=15-	=15-	=15-	=15-	=15-	=15-	=15-	=15-	=15-	=15-
!	!	!LO:TX:t=P:problem:kreska pseudotaktowa	!	!	!	!	!	!	!
1AA/)	7:8 6\:5	1cc	.	4aa\)	.	2f#X/	mo-	2a\	mo-
.	.	.	.	4bb\	.	.	.	.	.
!	!	!	!	!LO:TX:t=P:problem:kreska pseudotaktowa	!	!	!	!	!
.	.	.	.	(2ccc\	.	2e/	-ri-	2g/	-ri-
!LO:TX:t=P:problem:kreska pseudotaktowa	!	!	!	!	!	!	!	!	!
1BB	4:3	2r	.	4ccc\)	.	2e/	-en-	2.f#X/	-en-
.	.	.	.	4bb\	.	.	.	.	.
.	.	2b/	.	4.bb\	.	2d#X/	-ti-	.	.
.	.	.	.	.	.	.	.	4f#/	-ti-
.	.	.	.	8aa\	.	.	.	.	.
=16-	=16-	=16-	=16-	=16-	=16-	=16-	=16-	=16-	=16-
!	!	!	!	!LO:TX:t=P:problem:kreska pseudotaktowa	!	!	!	!LO:TX:t=P:problem:kreska pseudotaktowa	!
1E	#	1b	.	1gg#X	.	1e	-úm,	1g#X	-úm,
!	!	!LO:TX:a:t=6	!	!LO:TX:a:t=5	!	!LO:TX:t=P:problem:kreska pseudotaktowa	!	!	!
(1E	.	00r	.	00r	.	1r	.	4r	.
.	.	.	.	.	.	.	.	2b\	Spes
.	.	.	.	.	.	.	.	8b\	mi-
.	.	.	.	.	.	.	.	8b\	-ſe-
!LO:LB:g=original	!	!	!	!	!	!	!	!	!
=17-	=17-	=17-	=17-	=17-	=17-	=17-	=17-	=17-	=17-
1E)	.	.	.	.	.	4r	.	2e/	-ro-
.	.	.	.	.	.	2ee\	Spes	.	.
.	.	.	.	.	.	.	.	4e/	-rúm
.	.	.	.	.	.	8ee\	mi-	4r	.
!	!	!	!	!	!	!LO:TX:t=P:problem:kreska pseudotaktowa	!	!	!
.	.	.	.	.	.	8ee\	-ſe-	.	.
!LO:TX:t=P:problem:kreska pseudotaktowa	!	!	!	!	!	!	!	!LO:TX:t=P:problem:kreska pseudotaktowa	!
1F#X	6	.	.	.	.	2a\	-ro-	1r	.
.	.	.	.	.	.	8a\	-rúm	.	.
.	.	.	.	.	.	8a\	da	.	.
.	.	.	.	.	.	8ddny\	mi-	.	.
!	!	!	!	!	!	!LO:TX:t=P:problem:kreska pseudotaktowa	!	!	!
!	!	!	!	!	!	!LO:SIC:v:t=custos b	!	!	!
.	.	.	.	.	.	8ccny\	-hi	.	.
!	!	!	!	!	!	!LO:LB:g=original	!	!	!
=18-	=18-	=18-	=18-	=18-	=18-	=18-	=18-	=18-	=18-
2G\	.	.	.	.	.	8b\L	ve-	8r	.
.	.	.	.	.	.	16dd\L	.	8d/	da
.	.	.	.	.	.	16cc\JJ	.	.	.
.	.	.	.	.	.	16b\LL	-ni-	8gny/	mi-
.	.	.	.	.	.	16g\	.	.	.
.	.	.	.	.	.	16a\	.	8fny/	-hi
.	.	.	.	.	.	16b\JJ	.	.	.
2BB/	.	.	.	.	.	8cc\	-am	8e/L	ve-
.	.	.	.	.	.	8g/	da	16g/L	.
.	.	.	.	.	.	.	.	16f/JJ	.
.	.	.	.	.	.	8cc\	mi-	16e/LL	-ni-
.	.	.	.	.	.	.	.	16c/	.
!	!	!	!	!	!	!LO:TX:t=P:problem:kreska pseudotaktowa	!	!	!
.	.	.	.	.	.	8b\	-hi	16d/	.
!	!	!	!	!	!	!	!	!LO:TX:t=P:problem:kreska pseudotaktowa	!
!	!	!	!	!	!	!	!	!LO:SIC:v:t=custos f	!
.	.	.	.	.	.	.	.	16e/JJ	.
!	!	!	!	!	!	!	!	!LO:LB:g=original	!
4FF/	.	1r	.	1r	.	4a\	ve-	4f/	-am
4Fny\	.	.	.	.	.	8a\	-ni-	8f/	di-
.	.	.	.	.	.	8a\	-am	8f/	-li-
!LO:TX:t=P:problem:kreska pseudotaktowa	!	!	!	!	!	!	!	!	!
2G\	6#r	.	.	.	.	4.g/	de-	4e/	-cto-
.	.	.	.	.	.	.	.	8e/	-rúm
!	!	!	!	!	!	!LO:TX:t=P:problem:kreska pseudotaktowa	!	!LO:TX:t=P:problem:kreska pseudotaktowa	!
.	.	.	.	.	.	8fny/	-li-	8d/	me-
=19-	=19-	=19-	=19-	=19-	=19-	=19-	=19-	=19-	=19-
!	!	!LO:TX:t=P:problem:kreska pseudotaktowa	!	!	!	!	!	!	!
2A\	5:6 3:4	1r	.	2r	.	4e/	-cto-	4c#X/	-o-
.	.	.	.	.	.	8f/	-rúm	8d/	-rúm
.	.	.	.	.	.	8f/	me-	8d/	me-
2AA/	4:3	.	.	8r	.	2e/	-o-	(>4.d/	-o-
.	.	.	.	8ee\L	.	.	.	.	.
.	.	.	.	8aa\	.	.	.	.	.
!	!	!	!	!LO:TX:t=P:problem:kreska pseudotaktowa	!	!	!	!	!
!	!	!	!	!LO:SIC:v:t=custos ff	!	!	!	!	!
.	.	.	.	8ggny\J	.	.	.	8c#X/)	.
!	!	!	!	!LO:LB:g=original	!	!	!	!	!
2D/	#	4r	.	8ff#X\L	.	4f#X/	-rúm	4d/	-rúm
.	.	.	.	16aa\L	.	.	.	.	.
.	.	.	.	16gg\JJ	.	.	.	.	.
.	.	8a\L	.	16ff#X\LL	.	4r	.	4r	.
.	.	.	.	16dd\	.	.	.	.	.
.	.	16dd\L	.	16ee\	.	.	.	.	.
!	!	!	!	!LO:TX:t=P:problem:# above	!	!	!	!	!
.	.	16cc\JJ	.	16ff#X\JJ	.	.	.	.	.
4GG/	.	8b\L	.	8gg\L	.	2r	.	2r	.
.	.	16dd\L	.	8dd\	.	.	.	.	.
.	.	16cc\JJ	.	.	.	.	.	.	.
!LO:TX:t=P:problem:kreska pseudotaktowa	!	!	!	!	!	!	!	!	!
4G\	.	16b/LL	.	8gg\	.	.	.	.	.
.	.	16g/	.	.	.	.	.	.	.
!	!	!	!	!LO:TX:t=P:problem:kreska pseudotaktowa	!	!	!	!	!
.	.	16a/	.	8ff#\J	.	.	.	.	.
!	!	!LO:TX:t=P:problem:kreska pseudotaktowa	!	!	!	!	!	!	!
.	.	16b/JJ	.	.	.	.	.	.	.
=20-	=20-	=20-	=20-	=20-	=20-	=20-	=20-	=20-	=20-
!	!	!	!	!	!	!LO:TX:t=P:problem:kreska pseudotaktowa	!	!LO:TX:t=P:problem:kreska pseudotaktowa	!
2C/	.	8cc/L	.	8ee\L	.	0r	.	0r	.
.	.	8g/	.	16gg\L	.	.	.	.	.
.	.	.	.	16ffny\JJ	.	.	.	.	.
.	.	8cc/	.	16ee\LL	.	.	.	.	.
.	.	.	.	16cc\	.	.	.	.	.
.	.	8b/J	.	16dd\	.	.	.	.	.
.	.	.	.	16ee\JJ	.	.	.	.	.
4FF/	.	4a/	.	4ff\	.	.	.	.	.
4F\	.	8a/L	.	8ff\L	.	.	.	.	.
!	!	!LO:TX:t=P:problem:kreska pseudotaktowa	!	!LO:TX:t=P:problem:kreska pseudotaktowa	!	!	!	!	!
.	.	8a/J	.	8ff\J	.	.	.	.	.
2G\	6:5	4.g/	.	4.ee\	.	.	.	.	.
!	!	!LO:SIC:v:t=custos e	!	!	!	!	!	!	!
.	.	8fny/	.	8dd\	.	.	.	.	.
!	!	!LO:LB:g=original	!	!	!	!	!	!	!
4A\	#	4e/	.	4cc#X\	.	.	.	.	.
!LO:TX:t=P:problem:kreska pseudotaktowa	!	!	!	!	!	!	!	!	!
4D/	-	8f/L	.	2dd\	.	.	.	.	.
!	!	!LO:TX:t=P:problem:kreska pseudotaktowa	!	!	!	!	!	!	!
.	.	8f/J	.	.	.	.	.	.	.
=21-	=21-	=21-	=21-	=21-	=21-	=21-	=21-	=21-	=21-
2A\	4:3	16e/LL	.	.	.	8r	.	2r	.
.	.	16d/	.	.	.	.	.	.	.
.	.	16e/	.	.	.	8e/	da	.	.
.	.	16f/JJ	.	.	.	.	.	.	.
.	.	4e/	.	4cc#X\	.	8a\	mi-	.	.
.	.	.	.	.	.	8g/	-hi	.	.
!	!	!	!	!	!	!LO:TX:t=P:problem:# below	!	!	!
2D/	.	2f#X/	.	2dd\	.	8f#X/L	ve-	8r	.
.	.	.	.	.	.	16a/L	.	8a\	da
.	.	.	.	.	.	16g/JJ	.	.	.
.	.	.	.	.	.	16f#/LL	-ni-	8dd\	mi-
!	!	!	!	!	!	!LO:TX:t=P:problem:# below	!	!	!
.	.	.	.	.	.	16d#X/	.	.	.
!	!	!	!	!	!	!	!	!LO:TX:t=P:problem:kreska pseudotaktowa	!
.	.	.	.	.	.	16e/	.	8cc\	-hi
!	!	!	!	!	!	!LO:TX:t=P:problem:kreska pseudotaktowa	!	!	!
!	!	!	!	!	!	!LO:SIC:v:t=custos g	!	!	!
!	!	!	!	!	!	!LO:TX:t=P:problem:# below	!	!	!
.	.	.	.	.	.	16f#X/JJ	.	.	.
!	!	!	!	!	!	!LO:LB:g=original	!	!	!
4GG/	.	1r	.	0r	.	8g/	-am	8b\L	ve-
.	.	.	.	.	.	8d#/	d(a)	16dd\L	.
.	.	.	.	.	.	.	.	16cc\JJ	.
4G\	.	.	.	.	.	8g/	mi-	16b\LL	-ni-
.	.	.	.	.	.	.	.	16g\	.
.	.	.	.	.	.	8f#/	-hi	16a\	.
.	.	.	.	.	.	.	.	16b\JJ	.
!LO:TX:t=P:problem:kreska pseudotaktowa	!	!	!	!	!	!	!	!	!
!LO:SIC:v:t=custos D	!	!	!	!	!	!	!	!	!
2C/	5:6	.	.	.	.	8e/	da	8cc\	-am
.	.	.	.	.	.	8e/	da	8g/	da
.	.	.	.	.	.	8a\	mi-	8cc\	mi-
!	!	!	!	!	!	!LO:TX:t=P:problem:kreska pseudotaktowa	!	!LO:TX:t=P:problem:kreska pseudotaktowa	!
.	.	.	.	.	.	8g/	-hi	8b\	-hi
!LO:LB:g=original	!	!	!	!	!	!	!	!LO:LB:g=original	!
=22-	=22-	=22-	=22-	=22-	=22-	=22-	=22-	=22-	=22-
!	!	!LO:TX:t=P:problem:kreska pseudotaktowa	!	!LO:TX:t=P:problem:kreska pseudotaktowa	!	!	!	!	!
4D/	#	1r	.	.	.	8f#X/	ve-	8a\	ve-
.	.	.	.	.	.	16f#/	-ni-	16a\	-ni-
.	.	.	.	.	.	16f#/	-am	16a\	-am
4BB/	6	.	.	.	.	8g\	di-	8dd\	di-
.	.	.	.	.	.	8f#/	-li-	8dd\	-li-
2C/	.	.	.	.	.	8e/L	-cto-	4cc\	-cto-
.	.	.	.	.	.	8f#/J	.	.	.
.	.	.	.	.	.	8g/	-rúm	8cc\	-rúm
!	!	!	!	!	!	!LO:TX:t=P:problem:kreska pseudotaktowa	!	!LO:TX:t=P:problem:kreska pseudotaktowa	!
.	.	.	.	.	.	8g/	me-	8b\	me-
2D/	4:3	8r	.	2r	.	(4.g/	-o-	2a\	-o-
.	.	8a\L	.	.	.	.	.	.	.
.	.	8dd\	.	.	.	.	.	.	.
.	.	8cc\J	.	.	.	8f#X/)	.	.	.
!LO:TX:t=P:problem:kreska pseudotaktowa	!	!	!	!	!	!	!	!	!
2G\	5:6	8b\L	.	8r	.	4g/	-rúm	4b\	-rúm
.	.	16dd\L	.	8dd\L	.	.	.	.	.
.	.	16cc\JJ	.	.	.	.	.	.	.
.	.	16b/LL	.	8gg\	.	4r	.	4r	.
.	.	16g/	.	.	.	.	.	.	.
!	!	!	!	!LO:TX:t=P:problem:kreska pseudotaktowa	!	!	!	!	!
.	.	16a/	.	8ff\J	.	.	.	.	.
!	!	!LO:TX:t=P:problem:kreska pseudotaktowa	!	!	!	!	!	!	!
.	.	16b/JJ	.	.	.	.	.	.	.
=23-	=23-	=23-	=23-	=23-	=23-	=23-	=23-	=23-	=23-
!	!	!	!	!	!	!LO:TX:t=P:problem:kreska pseudotaktowa	!	!LO:TX:t=P:problem:kreska pseudotaktowa	!
2C/	.	8cc/L	.	8ee\L	.	0r	.	0r	.
.	.	8g/	.	16gg\L	.	.	.	.	.
.	.	.	.	16ff\JJ	.	.	.	.	.
.	.	8cc/	.	16ee\LL	.	.	.	.	.
.	.	.	.	16ccny\	.	.	.	.	.
.	.	8b/J	.	16dd\	.	.	.	.	.
!	!	!	!	!LO:SIC:v:t=custos ff	!	!	!	!	!
.	.	.	.	16ee\JJ	.	.	.	.	.
!	!	!	!	!LO:LB:g=original	!	!	!	!	!
!	!	!LO:TX:t=P:problem:mixed beam	!	!	!	!	!	!	!
4FF/	.	8a/L	.	8ff\L	.	.	.	.	.
.	.	8ffny\	.	8aa\	.	.	.	.	.
!LO:TX:t=P:problem:kreska pseudotaktowa	!	!	!	!	!	!	!	!	!
4GG/	.	8ee\	.	8gg\	.	.	.	.	.
!	!	!LO:TX:t=P:problem:kreska pseudotaktowa	!	!LO:TX:t=P:problem:kreska pseudotaktowa	!	!	!	!	!
.	.	8dd\J	.	8ff\J	.	.	.	.	.
4AA/	.	16cc\LL	.	16ee\LL	.	.	.	.	.
.	.	16b\	.	16dd\	.	.	.	.	.
.	.	16cc\	.	16ee\	.	.	.	.	.
.	.	16dd\JJ	.	16ff\JJ	.	.	.	.	.
4EE/	6	8ee\L	.	8gg\L	.	.	.	.	.
.	.	8ee\J	.	8gg\J	.	.	.	.	.
2FF/	.	8a/L	.	4.ff\	.	.	.	.	.
.	.	8b/J	.	.	.	.	.	.	.
!	!	!LO:TX:t=P:problem:kreska pseudotaktowa	!	!	!	!	!	!	!
.	.	[4cc\	.	.	.	.	.	.	.
!	!	!	!	!LO:TX:t=P:problem:kreska pseudotaktowa	!	!	!	!	!
.	.	.	.	8ee\	.	.	.	.	.
=24-	=24-	=24-	=24-	=24-	=24-	=24-	=24-	=24-	=24-
2GG/	4:3	4cc\]	.	4.dd\	.	2r	.	8r	.
.	.	.	.	.	.	.	.	8d/	da
!	!	!LO:SIC:v:t=custos cc	!	!	!	!	!	!	!
.	.	4b/	.	.	.	.	.	8g/	mi-
.	.	.	.	8dd\	.	.	.	8f/	-hi
!LO:TX:t=P:problem:kreska pseudotaktowa	!	!	!	!	!	!	!	!	!
!	!	!LO:LB:g=original	!	!	!	!	!	!	!
2C/	.	4cc\	.	4.ee\	.	8r	.	4e/	ve-
.	.	.	.	.	.	8g\	da	.	.
!	!	!LO:TX:t=P:problem:kreska pseudotaktowa	!	!	!	!	!	!	!
.	.	(4g/	.	.	.	8cc\	mi-	8e/	-ni-
!	!	!	!	!	!	!LO:TX:t=P:problem:kreska pseudotaktowa	!	!	!
!	!	!	!	!LO:TX:t=P:problem:kreska pseudotaktowa	!	!LO:SIC:v:t=custos b	!	!LO:TX:t=P:problem:kreska pseudotaktowa	!
.	.	.	.	8ee\	.	8b\	-hi	8e/	-am
!	!	!	!	!	!	!LO:LB:g=original	!	!	!
4GG/	.	8g/)	.	8dd\L	.	4b\	ve-	2r	.
.	.	8a/J	.	8dd\J	.	.	.	.	.
4G\	.	8b/L	.	8gg\L	.	8b\	-ni-	.	.
.	.	16a/L	.	16ff\L	.	8b\	-am	.	.
.	.	16g/JJ	.	16ee\JJ	.	.	.	.	.
!	!	!	!	!LO:TX:t=P:problem:kreska pseudotaktowa	!	!	!	!	!
2D/	-	2a/	.	2ff\	.	4r	.	4r	.
.	.	.	.	.	.	8dd\	di-	8ff\	Di-
!	!	!	!	!	!	!LO:TX:t=P:problem:kreska pseudotaktowa	!	!	!
.	.	.	.	.	.	8cc\	-li-	8ee\	-li-
=25-	=25-	=25-	=25-	=25-	=25-	=25-	=25-	=25-	=25-
2D/	6	2dd\	.	4.ff\	.	4b\	-cto-	4dd\	-cto-
.	.	.	.	.	.	8b\	-rúm	8dd\	-rúm
.	.	.	.	8aa\	.	8a\	me-	8cc\	me-
!	!	!	!	!	!	!	!	!LO:TX:t=P:problem:kreska pseudotaktowa	!
!LO:TX:t=P:problem:kreska pseudotaktowa	!	!	!	!	!	!	!	!LO:SIC:v:t=custos cc	!
2E\	4:3	4r	.	2ee\	.	(4.a\	-o-	2b\	-o-
!	!	!LO:TX:t=P:problem:kreska pseudotaktowa	!	!	!	!	!	!	!
.	.	4b/	.	.	.	.	.	.	.
!	!	!	!	!	!	!LO:TX:t=P:problem:kreska pseudotaktowa	!	!	!
.	.	.	.	.	.	8g#X\)	.	.	.
!	!	!	!	!	!	!	!	!LO:LB:g=original	!
2A\	-	2a/	.	2ee\	.	4a\	-rúm	4cc\	-rúm
.	.	.	.	.	.	8a\	di-	8cc\	di-
.	.	.	.	.	.	8gny/	-li-	8b\	-li-
2AA/	# 6:5	4a/	.	4aa\	.	4f#X/	-cto-	4a\	-cto-
!	!	!LO:TX:t=P:problem:kreska pseudotaktowa	!	!LO:TX:t=P:problem:kreska pseudotaktowa	!	!	!	!	!
.	.	4ee\	.	(4ccc\	.	8e/	-rúm	8a\	-rúm
!	!	!	!	!	!	!LO:TX:t=P:problem:kreska pseudotaktowa	!	!LO:TX:t=P:problem:kreska pseudotaktowa	!
.	.	.	.	.	.	8e/	me-	8g/	me-
=26-	=26-	=26-	=26-	=26-	=26-	=26-	=26-	=26-	=26-
2BB/	9:8 4:3	4r	.	4ccc\)	.	(4.e/	-o-	2f#X/	-o-
.	.	4b/	.	8bb\L	.	.	.	.	.
.	.	.	.	8aa\J	.	8d#X/)	.	.	.
!LO:TX:t=P:problem:kreska pseudotaktowa	!	!	!	!	!	!	!	!	!
!LO:SIC:v:t=custos F	!	!	!	!	!	!	!	!	!
2E\	-	4b/	.	4gg#X\	.	4e/	-rúm	4g#X/	-rúm
!	!	!	!	!LO:TX:t=P:problem:kreska pseudotaktowa	!	!	!	!	!
!	!	!	!	!LO:SIC:v:t=custos bb	!	!LO:TX:t=P:problem:kreska pseudotaktowa	!	!	!
.	.	2ee\	.	4r	.	4r	.	4r	.
!LO:LB:g=original	!	!	!	!LO:LB:g=original	!	!LO:TX:b:t=13	!	!LO:TX:b:t=13	!
2F#X\	7:6	.	.	2r	.	00r	.	00r	.
.	.	8dd\L	.	.	.	.	.	.	.
.	.	8cc\J	.	.	.	.	.	.	.
2G\	.	4b/	.	4r	.	.	.	.	.
!	!	!LO:TX:t=P:problem:kreska pseudotaktowa	!	!	!	!	!	!	!
.	.	(4gg\	.	2bb\	.	.	.	.	.
=27-	=27-	=27-	=27-	=27-	=27-	=27-	=27-	=27-	=27-
2A\	9:8	4gg\)	.	.	.	.	.	.	.
.	.	8ff#X\L	.	8aa\L	.	.	.	.	.
.	.	8ee\J	.	8ggny\J	.	.	.	.	.
4B\	.	8dd\L	.	8ff#X\L	.	.	.	.	.
.	.	8ee\J	.	8gg\J	.	.	.	.	.
!LO:TX:t=P:problem:kreska pseudotaktowa	!	!LO:TX:t=P:problem:kreska pseudotaktowa	!	!LO:TX:t=P:problem:kreska pseudotaktowa	!	!	!	!	!
4F#X\	6	4ff#X\	.	4aa\	.	.	.	.	.
2G\	.	8b\L	.	4.gg\	.	.	.	.	.
.	.	8cc\J	.	.	.	.	.	.	.
.	.	2dd\	.	.	.	.	.	.	.
.	.	.	.	8ff#X\	.	.	.	.	.
2A\	4:3	.	.	4.ee\	.	.	.	.	.
!	!	!LO:TX:t=P:problem:kreska pseudotaktowa	!	!	!	!	!	!	!
!	!	!LO:SIC:v:t=custos dd	!	!	!	!	!	!	!
.	.	4cc#X\	.	.	.	.	.	.	.
!	!	!	!	!LO:TX:t=P:problem:kreska pseudotaktowa	!	!	!	!	!
.	.	.	.	8ee\	.	.	.	.	.
!	!	!LO:LB:g=original	!	!	!	!	!	!	!
=28-	=28-	=28-	=28-	=28-	=28-	=28-	=28-	=28-	=28-
2D/	#	4dd\	.	2ff#X\	.	.	.	.	.
.	.	2dd\	.	.	.	.	.	.	.
!LO:TX:t=P:problem:kreska pseudotaktowa	!	!	!	!	!	!	!	!	!
2E\	7:6	.	.	2r	.	.	.	.	.
.	.	8ccny\L	.	.	.	.	.	.	.
!	!	!LO:TX:t=P:problem:kreska pseudotaktowa	!	!	!	!	!	!	!
.	.	8b\J	.	.	.	.	.	.	.
2F#X\	.	4.a/	.	4r	.	00r	.	00r	.
.	.	.	.	2aa\	.	.	.	.	.
.	.	8a/	.	.	.	.	.	.	.
2G\	9:8	4.b/	.	.	.	.	.	.	.
.	.	.	.	8gg\L	.	.	.	.	.
!	!	!LO:TX:t=P:problem:kreska pseudotaktowa	!	!LO:TX:t=P:problem:kreska pseudotaktowa	!	!	!	!	!
.	.	8b/	.	8ff#\J	.	.	.	.	.
=29-	=29-	=29-	=29-	=29-	=29-	=29-	=29-	=29-	=29-
!LO:TX:t=P:problem:kreska pseudotaktowa	!	!	!	!	!	!	!	!	!
1A	#	4cc#X\	.	4ee\	.	.	.	.	.
.	.	8a/L	.	8cc#X\L	.	.	.	.	.
.	.	8b/J	.	8dd\J	.	.	.	.	.
.	.	8cc#X\L	.	8ee\L	.	.	.	.	.
.	.	8b\	.	8dd\	.	.	.	.	.
.	.	8cc#X\	.	8ee\	.	.	.	.	.
!	!	!LO:TX:t=P:problem:kreska pseudotaktowa	!	!LO:TX:t=P:problem:kreska pseudotaktowa	!	!	!	!	!
.	.	8dd\J	.	8ff#X\J	.	.	.	.	.
1E	-	4ee\	.	4gg\	.	.	.	.	.
.	.	8e/L	.	8g/L	.	.	.	.	.
.	.	8f#X/J	.	8a/J	.	.	.	.	.
.	.	8g/L	.	8b/L	.	.	.	.	.
.	.	8f#X/	.	8a/	.	.	.	.	.
.	.	8g/	.	8b/	.	.	.	.	.
!	!	!LO:TX:t=P:problem:kreska pseudotaktowa	!	!LO:TX:t=P:problem:kreska pseudotaktowa	!	!	!	!	!
.	.	8a/J	.	8ccny/J	.	.	.	.	.
=30-	=30-	=30-	=30-	=30-	=30-	=30-	=30-	=30-	=30-
4BB/	6	8b/L	.	8dd\L	.	.	.	.	.
.	.	8b/	.	8dd\	.	.	.	.	.
4C/	.	8a/	.	8cc\	.	.	.	.	.
.	.	8g/J	.	8b\J	.	.	.	.	.
!LO:TX:t=P:problem:kreska pseudotaktowa	!	!	!	!	!	!	!	!	!
2D/	4:3	4.g/	.	4.a/	.	.	.	.	.
!	!	!	!	!LO:TX:t=P:problem:kreska pseudotaktowa	!	!	!	!	!
!	!	!LO:TX:t=P:problem:kreska pseudotaktowa	!	!LO:SIC:v:t=custos b	!	!	!	!	!
.	.	8f#X/	.	8a/	.	.	.	.	.
!	!	!	!	!LO:LB:g=original	!	!	!	!	!
1G	#	4g/	.	4b/	.	00r	.	00r	.
.	.	8g/L	.	8b/L	.	.	.	.	.
.	.	8a/J	.	8cc/J	.	.	.	.	.
.	.	8b/L	.	8dd\L	.	.	.	.	.
.	.	8a/J	.	8cc\	.	.	.	.	.
.	.	8b/L	.	8dd\	.	.	.	.	.
!	!	!LO:TX:t=P:problem:kreska pseudotaktowa	!	!	!	!	!	!	!
!	!	!LO:SIC:v:t=custos dd	!	!LO:TX:t=P:problem:kreska pseudotaktowa	!	!	!	!	!
.	.	8cc#X/J	.	8ee\J	.	.	.	.	.
!	!	!LO:LB:g=original	!	!	!	!	!	!	!
=31-	=31-	=31-	=31-	=31-	=31-	=31-	=31-	=31-	=31-
!LO:TX:t=P:problem:kreska pseudotaktowa	!	!	!	!	!	!	!	!	!
1D	#	4dd\	.	4ff#X\	.	.	.	.	.
.	.	8dd\L	.	8ff#\L	.	.	.	.	.
.	.	8ee\J	.	8gg\J	.	.	.	.	.
.	.	8ff#X\L	.	8aa\L	.	.	.	.	.
.	.	8ee\	.	8gg\	.	.	.	.	.
.	.	8dd\	.	8ff#X\	.	.	.	.	.
!	!	!LO:TX:t=P:problem:kreska pseudotaktowa	!	!LO:TX:t=P:problem:kreska pseudotaktowa	!	!	!	!	!
.	.	8ee\J	.	8gg\J	.	.	.	.	.
4A\	.	4cc#X\	.	4.ee\	.	.	.	.	.
4F#X\	6	4a/	.	.	.	.	.	.	.
.	.	.	.	8aa\	.	.	.	.	.
!LO:TX:t=P:problem:kreska pseudotaktowa	!	!	!	!	!	!	!	!	!
!LO:SIC:v:t=custos A	!	!	!	!	!	!	!	!	!
2G\	.	8b\L	.	4.gg\	.	.	.	.	.
.	.	8cc#\J	.	.	.	.	.	.	.
.	.	2dd\	.	.	.	.	.	.	.
!	!	!	!	!LO:TX:t=P:problem:kreska pseudotaktowa	!	!	!	!	!
.	.	.	.	8ff#\	.	.	.	.	.
!LO:LB:g=original	!	!	!	!	!	!	!	!	!
=32-	=32-	=32-	=32-	=32-	=32-	=32-	=32-	=32-	=32-
!	!	!	!	!	!	!	!	!LO:TX:t=P:problem:kreska pseudotaktowa	!
2A\	4:3	.	.	4.ee\	.	.	.	.	.
.	.	4cc#X\	.	.	.	.	.	.	.
.	.	.	.	8ee\	.	.	.	.	.
4D/	.	4dd\	.	4.ff#X\	.	.	.	.	.
!LO:TX:t=P:problem:kreska pseudotaktowa	!	!LO:TX:t=P:problem:kreska pseudotaktowa	!LO:DY:b:B:t=Pian.	!	!	!	!	!	!
4F#X\	6	4a/	p	.	.	.	.	.	.
!	!	!	!	!LO:TX:t=P:problem:kreska pseudotaktowa	!LO:DY:B:b:t=Piano	!	!	!	!
.	.	.	.	8aa\	p	.	.	.	.
2G\	.	8b\L	.	4.gg\	.	1r	.	1r	.
.	.	8cc#\J	.	.	.	.	.	.	.
.	.	2dd\	.	.	.	.	.	.	.
.	.	.	.	8ff#\	.	.	.	.	.
2A\	4:3	.	.	4.ee\	.	.	.	.	.
.	.	4cc#X\	.	.	.	.	.	.	.
!	!	!	!	!LO:TX:t=P:problem:kreska pseudotaktowa	!	!	!	!	!
.	.	.	.	8ee\	.	.	.	.	.
=33-	=33-	=33-	=33-	=33-	=33-	=33-	=33-	=33-	=33-
!LO:TX:t=P:problem:kreska pseudotaktowa	!	!	!	!	!	!	!	!	!
1D	5:6 #	2dd\	.	2ff#X\	.	2r	.	4r	.
.	.	.	.	.	.	.	.	8a\	Par-
.	.	.	.	.	.	.	.	8a\	-ce
!	!	!	!	!	!	!	!	!LO:TX:t=P:problem:kreska pseudotaktowa	!
.	.	2r	.	2r	.	4r	.	2b\	par-
.	.	.	.	.	.	8f#X/	Par-	.	.
!	!	!	!	!	!	!LO:TX:t=P:problem:kreska pseudotaktowa	!	!	!
!	!	!	!	!	!	!LO:SIC:v:t=custos g	!	!	!
.	.	.	.	.	.	8f#/	-ce	.	.
!	!	!	!	!	!	!LO:LB:g=original	!	!	!
!	!	!LO:TX:a:t=7	!	!LO:TX:a:t=6	!	!	!	!	!
4E\	.	00r	.	00r	.	4g/	par-	4.b\	-ce,
4BB/	.	.	.	.	.	8d#X/	-ce	.	.
.	.	.	.	.	.	8d#/	mi	8b\	mi
2C/	7:6	.	.	.	.	4e/	je-	(4b\	Je-
!	!	!	!	!	!	!LO:TX:t=P:problem:kreska pseudotaktowa	!	!LO:TX:t=P:problem:kreska pseudotaktowa	!
.	.	.	.	.	.	4e/	-sú	4a\)	.
=34-	=34-	=34-	=34-	=34-	=34-	=34-	=34-	=34-	=34-
!LO:TX:t=P:problem:kreska pseudotaktowa	!	!	!	!	!	!	!	!	!
1GG#X	6	.	.	.	.	4r	.	2b\	-sú
.	.	.	.	.	.	2ee\	par-	.	.
.	.	.	.	.	.	.	.	1b	par-
.	.	.	.	.	.	4dd\	-ce	.	.
1AA	9:8	.	.	.	.	2cc\	par-	.	.
.	.	.	.	.	.	4.cc\	-ce	4.a\	-ce
!	!	!	!	!	!	!	!	!LO:TX:t=P:problem:kreska pseudotaktowa	!
!	!	!	!	!	!	!LO:TX:t=P:problem:kreska pseudotaktowa	!	!LO:SIC:v:t=custos a	!
.	.	.	.	.	.	8b\	mi	8a\	mi-
!	!	!	!	!	!	!	!	!LO:LB:g=original	!
=35-	=35-	=35-	=35-	=35-	=35-	=35-	=35-	=35-	=35-
4D/	6	.	.	.	.	2b\	je-	(4.a\	-je-
4E\	.	.	.	.	.	.	.	.	.
.	.	.	.	.	.	.	.	8g#X\)	.
!LO:TX:t=P:problem:kreska pseudotaktowa	!	!	!	!	!	!	!	!	!
(<2A\	5	.	.	.	.	4a\	-sú	4a\	-sú
*	*	*	*	*	*	*	*ij	*	*
!	!	!	!	!	!	!	!	!LO:TX:t=P:problem:kreska pseudotaktowa	!
.	.	.	.	.	.	8ee\	par-	4r	.
!	!	!	!	!	!	!LO:TX:t=P:problem:kreska pseudotaktowa	!	!	!
.	.	.	.	.	.	8ee\	-ce	.	.
2A\)	# 6	0r	.	0r	.	4ff#X\	par-	2r	.
.	.	.	.	.	.	8cc#X\	-ce	.	.
.	.	.	.	.	.	8cc#\	mi	.	.
4B\	.	.	.	.	.	4dd\	je-	4r	.
!	!	!	!	!	!	!LO:TX:t=P:problem:kreska pseudotaktowa	!	!	!
4F#X\	.	.	.	.	.	4dd\	-sú	8a\	par-
*	*	*	*	*	*	*	*Xij	*	*
!	!	!	!	!	!	!	!	!LO:TX:t=P:problem:kreska pseudotaktowa	!
.	.	.	.	.	.	.	.	8a\	-ce
=36-	=36-	=36-	=36-	=36-	=36-	=36-	=36-	=36-	=36-
!	!	!LO:TX:t=P:problem:kreska pseudotaktowa	!	!	!	!	!	!	!
4G\	.	.	.	.	.	4r	.	4b\	par-
4D/	#	.	.	.	.	2dd\	par-	8f#X/	-ce
.	.	.	.	.	.	.	.	8f#/	mi
4BB/	6	.	.	.	.	.	.	4gny/	je-
!LO:TX:t=P:problem:kreska pseudotaktowa	!	!	!	!	!	!	!	!	!
4C/	.	.	.	.	.	8ccny\	-ce	8g/	-sú
!	!	!	!	!	!	!	!	!LO:TX:t=P:problem:kreska pseudotaktowa	!
.	.	.	.	.	.	8b\	mi	8g/	mi
2D/	4:3	1r	.	2r	.	2a\	je-	(4.g/	je-
.	.	.	.	.	.	.	.	8f#X/)	.
!LO:TX:t=P:problem:kreska pseudotaktowa	!	!	!	!	!	!	!	!	!
!LO:SIC:v:t=custos G	!	!	!	!	!	!	!	!	!
2GGny/	.	.	.	4r	.	4b\	-sú	4g/	-sú
.	.	.	.	8dd\L	.	4r	.	4r	.
!	!	!	!	!LO:TX:t=P:problem:kreska pseudotaktowa	!	!	!	!	!
!	!	!	!	!LO:SIC:v:t=custos ee	!	!	!	!	!
.	.	.	.	8dd\J	.	.	.	.	.
!LO:LB:g=original	!	!	!	!LO:LB:g=original	!	!	!	!	!
=37-	=37-	=37-	=37-	=37-	=37-	=37-	=37-	=37-	=37-
!	!	!	!	!	!	!	!	!LO:TX:b:t=4	!
2G\	6	4r	.	4ee\	.	00r	.	00r	.
.	.	8b/L	.	4ee\	.	.	.	.	.
.	.	8b/J	.	.	.	.	.	.	.
4A\	.	4ccny\	.	4.ee\	.	.	.	.	.
!LO:TX:t=P:problem:kreska pseudotaktowa	!	!LO:TX:t=P:problem:kreska pseudotaktowa	!	!	!	!	!	!	!
4E\	.	4g/	.	.	.	.	.	.	.
!	!	!	!	!LO:TX:t=P:problem:kreska pseudotaktowa	!	!	!	!	!
.	.	.	.	8ee\	.	.	.	.	.
4.F#X\	6	4.a/	.	4dd\	.	.	.	.	.
.	.	.	.	2dd\	.	.	.	.	.
8G\	.	16g/LL	.	.	.	.	.	.	.
.	.	16fny/JJ	.	.	.	.	.	.	.
4A\	4:3	4.e/	.	.	.	.	.	.	.
!LO:TX:t=P:problem:kreska pseudotaktowa	!	!	!	!LO:TX:t=P:problem:kreska pseudotaktowa	!	!	!	!	!
4AA/	.	.	.	4cc#X\	.	.	.	.	.
.	.	8e/	.	.	.	.	.	.	.
=38-	=38-	=38-	=38-	=38-	=38-	=38-	=38-	=38-	=38-
!	!	!	!	!	!	!LO:TX:t=P:problem:kreska pseudotaktowa	!	!	!
!	!	!	!	!	!	!LO:SIC:v:t=custos a	!	!LO:TX:t=P:problem:kreska pseudotaktowa	!
2D/	.	2f#X/	.	4dd\	.	.	.	.	.
.	.	.	.	8aa\L	.	.	.	.	.
.	.	.	.	8aa\J	.	.	.	.	.
!LO:TX:t=P:problem:kreska pseudotaktowa	!	!	!	!	!	!	!	!	!
2D/	6 #	4r	.	4bb\	.	.	.	.	.
!	!	!	!	!LO:TX:t=P:problem:kreska pseudotaktowa	!	!	!	!	!
.	.	8ff#X\L	.	4bb\	.	.	.	.	.
!	!	!LO:TX:t=P:problem:kreska pseudotaktowa	!	!	!	!	!	!	!
!	!	!LO:SIC:v:t=custos gg	!	!	!	!	!	!	!
.	.	8ff#\J	.	.	.	.	.	.	.
!	!	!LO:LB:g=original	!	!	!	!	!	!	!
4E\	.	4gg\	.	4.bb\	.	.	.	.	.
4BB/	.	4dd\	.	.	.	.	.	.	.
.	.	.	.	8bb\	.	.	.	.	.
4.C/	6	4.ee\	.	4aa\	.	.	.	.	.
.	.	.	.	2aa\	.	.	.	.	.
!LO:TX:t=P:problem:kreska pseudotaktowa	!	!	!	!	!	!	!	!	!
8D/	.	16dd\LL	.	.	.	.	.	.	.
!	!	!LO:TX:t=P:problem:kreska pseudotaktowa	!	!	!	!	!	!	!
.	.	16cc\JJ	.	.	.	.	.	.	.
!	!	!	!	!	!	!LO:LB:g=original	!	!	!
=39-	=39-	=39-	=39-	=39-	=39-	=39-	=39-	=39-	=39-
2E\	4:3	4.b/	.	.	.	2r	.	2r	.
.	.	.	.	4gg#X\	.	.	.	.	.
.	.	8b/	.	.	.	.	.	.	.
4AA/	.	2cc\	.	2aa\	.	4r	.	4r	.
4A\	.	.	.	.	.	8a\	par-	8cc\	par-
!	!	!	!	!	!	!LO:TX:t=P:problem:kreska pseudotaktowa	!	!LO:TX:t=P:problem:kreska pseudotaktowa	!
.	.	.	.	.	.	8a\	-ce	8cc\	-ce
4.B\	7:6	1r	.	0r	.	4a\	par-	4b\	par-
.	.	.	.	.	.	8g/	-ce	8b\	-ce
8c#X\	.	.	.	.	.	8g/	mi	8b\	mi
!LO:TX:t=P:problem:kreska pseudotaktowa	!	!	!	!	!	!	!	!	!
2d\	4:3	.	.	.	.	4g/	je-	4a\	je-
!	!	!	!	!	!	!LO:TX:t=P:problem:kreska pseudotaktowa	!	!LO:TX:t=P:problem:kreska pseudotaktowa	!
.	.	.	.	.	.	4f#X/	-sú	4a\	-sú
=40-	=40-	=40-	=40-	=40-	=40-	=40-	=40-	=40-	=40-
!	!	!LO:TX:t=P:problem:kreska pseudotaktowa	!	!LO:TX:t=P:problem:kreska pseudotaktowa	!	!	!	!	!
4.G\	7:6	1r	.	.	.	4fny/	par-	4.g/	par-
.	.	.	.	.	.	4e/	-ce	.	.
8A\	.	.	.	.	.	.	.	8g/	-ce
!	!	!	!	!	!	!	!	!LO:TX:t=P:problem:kreska pseudotaktowa	!
!	!	!	!	!	!	!	!	!LO:SIC:v:t=custos e	!
2B\	4:3	.	.	.	.	(4.e/	par-	2f#X/	par-
!	!	!	!	!	!	!LO:TX:t=P:problem:kreska pseudotaktowa	!	!	!
.	.	.	.	.	.	8d#X/)	.	.	.
!	!	!	!	!	!	!	!	!LO:LB:g=original	!
2E\	-	4r	.	4r	.	4e/	-ce	4e/	-ce
.	.	4e/	.	4g/	.	4r	.	4r	.
!LO:TX:t=P:problem:kreska pseudotaktowa	!	!	!	!	!	!	!	!	!
!LO:SIC:v:t=custos E	!	!	!	!	!	!	!	!	!
2B\	4:3	4.e/	.	4.f#X/	.	2r	.	2r	.
!	!	!LO:TX:t=P:problem:kreska pseudotaktowa	!	!LO:TX:t=P:problem:kreska pseudotaktowa	!	!	!	!	!
.	.	8d#X/	.	8f#/	.	.	.	.	.
!LO:PB:g=original	!	!	!	!	!	!	!	!	!
=41-	=41-	=41-	=41-	=41-	=41-	=41-	=41-	=41-	=41-
!	!	!	!	!	!	!LO:TX:t=P:problem:kreska pseudotaktowa	!	!	!
4E\	.	4e/	.	4e/	.	0r	.	1r	.
4r	.	4r	.	4r	.	.	.	.	.
!LO:TX:t=P:problem:kreska pseudotaktowa	!	!	!	!	!	!	!	!	!
2r	.	2r	.	2r	.	.	.	.	.
!LO:TX:t=P:problem:kreska pseudotaktowa	!	!LO:TX:a:t=7	!	!LO:TX:a:t=7	!	!	!	!	!
1E	5:6	00r	.	00r	.	.	.	4r	.
.	.	.	.	.	.	.	.	4b\	pro-
.	.	.	.	.	.	.	.	4cc\	-pi-
.	.	.	.	.	.	.	.	8g#X/	-ti-
!	!	!	!	!	!	!	!	!LO:TX:t=P:problem:kreska pseudotaktowa	!
.	.	.	.	.	.	.	.	8g#/	-ús
=42-	=42-	=42-	=42-	=42-	=42-	=42-	=42-	=42-	=42-
4Fny\	.	.	.	.	.	4r	.	4.a\	es-
4C#X/	6	.	.	.	.	4ee\	pro-	.	.
.	.	.	.	.	.	.	.	8gny/	-to
4D/	-	.	.	.	.	4ffny\	-pi-	4fny/	mi-
!	!	!	!	!	!	!	!	!LO:TX:t=P:problem:kreska pseudotaktowa	!
4AA/	#	.	.	.	.	8cc#X\	-ti-	4a\	-hi
!	!	!	!	!	!	!LO:TX:t=P:problem:kreska pseudotaktowa	!	!	!
.	.	.	.	.	.	8cc#\	-ús	.	.
4.BB/	.	.	.	.	.	(8dd\L	es-	4d/	es-
.	.	.	.	.	.	8cc#\J)	.	.	.
.	.	.	.	.	.	(8b\L	-to	4g\	-to
8C#/	.	.	.	.	.	8a\J)	.	.	.
!LO:TX:t=P:problem:kreska pseudotaktowa	!	!	!	!	!	!LO:TX:t=P:problem:kreska pseudotaktowa	!	!	!
2D/	4:3	.	.	.	.	2a\	mi-	(4.g/	mi-
!	!	!	!	!	!	!	!	!LO:TX:t=P:problem:kreska pseudotaktowa	!
.	.	.	.	.	.	.	.	8f#X/)	.
=43-	=43-	=43-	=43-	=43-	=43-	=43-	=43-	=43-	=43-
2G\	.	.	.	.	.	4b\	-hi	4g/	-hi,
.	.	.	.	.	.	4r	.	4dd\	pro-
2G#X\	6	.	.	.	.	2r	.	4ee\	-pi-
.	.	.	.	.	.	.	.	8b\	-ti-
!	!	!	!	!	!	!	!	!LO:TX:t=P:problem:kreska pseudotaktowa	!
.	.	.	.	.	.	.	.	8b\	-ús
!	!	!	!	!	!	!LO:PB:g=original	!	!	!
2A\	#	0r	.	0r	.	2r	.	4cc#X\	es-
.	.	.	.	.	.	.	.	4cc#\	-to
4.A\	#	.	.	.	.	4.ee\	mi-	4.cc#\	mi-
!LO:TX:t=P:problem:kreska pseudotaktowa	!	!	!	!	!	!	!	!	!
8G#\	.	.	.	.	.	8ee\	-hi	8cc#\	-hi
=44-	=44-	=44-	=44-	=44-	=44-	=44-	=44-	=44-	=44-
!	!	!LO:TX:t=P:problem:kreska pseudotaktowa	!	!	!	!	!	!	!
!LO:SIC:v:s=2F#	!	!LO:TX:a:t=Verte	!	!	!	!	!	!	!
2F\	7 6	.	.	.	.	2ee\	pec-	2dd\	pec-
!	!	!	!	!	!	!	!	!LO:TX:t=P:problem:kreska pseudotaktowa	!
!	!	!	!	!	!	!	!	!LO:SIC:v:t=custos dd	!
4Gny\	.	.	.	.	.	2ee\	-ca-	2dd\	-ca-
4G#X\	6 5	.	.	.	.	.	.	.	.
!LO:TX:t=P:problem:kreska pseudotaktowa	!	!	!	!	!	!LO:TX:t=P:problem:kreska pseudotaktowa	!	!	!
!	!	!	!	!	!	!	!	!LO:PB:g=original	!
1A	4:3	1r	.	1r	.	1ee	-to-	4.dd\	-to-
.	.	.	.	.	.	.	.	16ee\LL	.
.	.	.	.	.	.	.	.	16dd\JJ	.
.	.	.	.	.	.	.	.	4.cc#X\	.
!	!	!	!	!	!	!	!	!LO:TX:t=P:problem:kreska pseudotaktowa	!
.	.	.	.	.	.	.	.	8dd\	.
!	!	!LO:PB:g=original	!	!LO:PB:g=original	!	!	!	!	!
=45||-	=45||-	=45||-	=45||-	=45||-	=45||-	=45||-	=45||-	=45||-	=45||-
*M3/2	*	*M3/2	*	*M3/2	*	*M3/2	*	*M3/2	*
!	!	!LO:TX:a:t=5	!	!LO:TX:a:t=7	!	!	!	!	!
1.D	.	00.r	.	00.r	.	2dd\	-ri	2dd\	-ri,
.	.	.	.	.	.	2r	.	2a\	et
!	!	!	!	!	!	!	!	!LO:TX:t=P:problem:kreska pseudotaktowa	!
.	.	.	.	.	.	2r	.	2a\	laú-
1Gny	.	.	.	.	.	1.r	.	4b\	-da-
.	.	.	.	.	.	.	.	8dd\L	.
.	.	.	.	.	.	.	.	8ccny\J	.
.	.	.	.	.	.	.	.	4b\	.
.	.	.	.	.	.	.	.	4g/	-bo
!LO:TX:t=P:problem:kreska pseudotaktowa	!	!	!	!	!	!	!	!	!
!LO:SIC:v:t=custos D	!	!	!	!	!	!	!	!	!
2Cny/	6	.	.	.	.	.	.	4a\	no-
!	!	!	!	!	!	!	!	!LO:TX:t=P:problem:kreska pseudotaktowa	!
.	.	.	.	.	.	.	.	4g/	-men
!LO:LB:g=original	!	!	!	!	!	!	!	!	!
=46-	=46-	=46-	=46-	=46-	=46-	=46-	=46-	=46-	=46-
1D	.	.	.	.	.	2r	.	2f#X/	tú-
.	.	.	.	.	.	2dd\	et	2f#/	-úm
!	!	!	!	!	!	!LO:TX:t=P:problem:kreska pseudotaktowa	!	!	!
2BB/	.	.	.	.	.	2dd\	laú-	1g	in
1C	5:6	.	.	.	.	4ee\	-da-	.	.
.	.	.	.	.	.	8gg\L	.	.	.
.	.	.	.	.	.	8ff\J	.	.	.
!	!	!	!	!	!	!	!	!LO:TX:t=P:problem:kreska pseudotaktowa	!
.	.	.	.	.	.	4ee\	.	1a	ae-
.	.	.	.	.	.	4ccny\	-bo	.	.
!LO:TX:t=P:problem:kreska pseudotaktowa	!	!	!	!	!	!	!	!	!
2F#X\	6	.	.	.	.	4dd\	no-	.	.
!	!	!	!	!	!	!LO:TX:t=P:problem:kreska pseudotaktowa	!	!	!
.	.	.	.	.	.	4cc\	-men	.	.
=47-	=47-	=47-	=47-	=47-	=47-	=47-	=47-	=47-	=47-
1.G	.	1.r	.	0.r	.	2.b\	tú-	2.g/	-ter-
.	.	.	.	.	.	4cc\	-úm	4a\	-núm
.	.	.	.	.	.	4dd\	in	4b\	in
!	!	!	!	!	!	!LO:TX:t=P:problem:kreska pseudotaktowa	!	!LO:TX:t=P:problem:kreska pseudotaktowa	!
.	.	.	.	.	.	4ee\	ae-	4cc\	ae-
1D	-	2r	.	.	.	4ff\	-ter-	4dd\	-ter-
.	.	.	.	.	.	4ee\	.	4cc\	.
.	.	2r	.	.	.	4dd\	.	4b\	.
.	.	.	.	.	.	4cc\	.	4a\	.
!	!	!	!	!	!	!	!	!LO:TX:t=P:problem:kreska pseudotaktowa	!
!LO:TX:t=P:problem:kreska pseudotaktowa	!	!	!	!	!	!	!	!LO:SIC:v:t=custos a	!
2E\	#	4b/	.	.	.	2b\	.	2g#X/	.
!	!	!LO:TX:t=P:problem:kreska pseudotaktowa	!	!	!	!	!	!	!
.	.	4b/	.	.	.	.	.	.	.
!	!	!	!	!	!	!	!	!LO:LB:g=original	!
=48-	=48-	=48-	=48-	=48-	=48-	=48-	=48-	=48-	=48-
1AA	#	4cc#X\	.	1.r	.	2a\	-núm	2a\	-núm
.	.	8ee\L	.	.	.	.	.	.	.
.	.	8dd\J	.	.	.	.	.	.	.
.	.	4cc#X\	.	.	.	2r	.	2r	.
.	.	4a/	.	.	.	.	.	.	.
2D/	6	4b/	.	.	.	2r	.	2r	.
!	!	!LO:TX:t=P:problem:kreska pseudotaktowa	!	!	!	!	!	!	!
.	.	4a/	.	.	.	.	.	.	.
!	!	!	!	!	!	!LO:TX:b:t=4	!	!LO:TX:b:t=6	!
2E\	.	2g#X/	.	2r	.	00.r	.	00.r	.
!LO:TX:t=P:problem:kreska pseudotaktowa	!	!	!	!	!	!	!	!	!
1C#X	.	1a	.	2ee\	.	.	.	.	.
!	!	!	!	!LO:TX:t=P:problem:kreska pseudotaktowa	!	!	!	!	!
.	.	.	.	2ee\	.	.	.	.	.
=49-	=49-	=49-	=49-	=49-	=49-	=49-	=49-	=49-	=49-
1D	5:6 #	2a/	.	4ff#X\	.	.	.	.	.
.	.	.	.	8aa\L	.	.	.	.	.
.	.	.	.	8ggny\J	.	.	.	.	.
!	!	!LO:TX:t=P:problem:kreska pseudotaktowa	!	!	!	!	!	!	!
.	.	1b	.	4ff#X\	.	.	.	.	.
.	.	.	.	4dd\	.	.	.	.	.
2G\	6	.	.	4ee\	.	.	.	.	.
!	!	!	!	!LO:TX:t=P:problem:kreska pseudotaktowa	!	!	!	!	!
.	.	.	.	4dd\	.	.	.	.	.
!	!	!	!	!LO:TX:t=P:problem:# above	!	!	!	!	!
1A	#	2.a/	.	2.cc#X\	.	.	.	.	.
.	.	4b/	.	4dd\	.	.	.	.	.
!LO:TX:t=P:problem:kreska pseudotaktowa	!	!	!	!	!	!	!	!	!
2A\	.	4cc#X\	.	4ee\	.	.	.	.	.
!	!	!LO:TX:t=P:problem:kreska pseudotaktowa	!	!LO:TX:t=P:problem:kreska pseudotaktowa	!	!	!	!	!
!	!	!	!	!LO:TX:t=P:problem:# above	!	!	!	!	!
.	.	4dd\	.	4ff#X\	.	.	.	.	.
=50-	=50-	=50-	=50-	=50-	=50-	=50-	=50-	=50-	=50-
!	!	!	!	!	!	!LO:TX:t=P:problem:kreska pseudotaktowa	!	!	!
2E\	6	4ee\	.	4gg\	.	.	.	.	.
!	!	!	!	!LO:TX:t=P:problem:# above	!	!	!	!	!
.	.	8dd\L	.	8ff#X\L	.	.	.	.	.
.	.	8cc#X\J	.	8ee\J	.	.	.	.	.
1G	.	4b/	.	4dd\	.	.	.	.	.
!	!	!	!	!LO:TX:t=P:problem:# above	!	!	!	!	!
.	.	4a/	.	4cc#X\	.	.	.	.	.
.	.	4b/	.	4dd\	.	.	.	.	.
!	!	!LO:TX:t=P:problem:kreska pseudotaktowa	!	!	!	!	!	!	!
!	!	!LO:SIC:v:t=custos dd	!	!LO:TX:t=P:problem:kreska pseudotaktowa	!	!	!	!	!
!	!	!LO:TX:t=P:problem:# above	!	!	!	!	!	!	!
.	.	4cc#X\	.	4ee\	.	.	.	.	.
!	!	!LO:LB:g=original	!	!	!	!LO:LB:g=original	!	!	!
2D/	#	2dd\	.	2ff#X\	.	2r	.	0.r	.
2A\	.	2.dd\	.	2.ee\	.	2e/	et	.	.
!LO:TX:t=P:problem:kreska pseudotaktowa	!	!	!	!	!	!	!	!	!
!LO:SIC:v:t=custos D	!	!	!	!	!	!LO:TX:t=P:problem:kreska pseudotaktowa	!	!	!
2AA/	4:3	.	.	.	.	2e/	laú-	.	.
!	!	!	!	!LO:TX:t=P:problem:# above	!	!	!	!	!
.	.	4cc#X\	.	8ff#X\L	.	.	.	.	.
.	.	.	.	8ee\J	.	.	.	.	.
!LO:LB:g=original	!	!	!	!	!	!	!	!	!
=51-	=51-	=51-	=51-	=51-	=51-	=51-	=51-	=51-	=51-
!	!	!	!	!	!	!	!	!LO:TX:t=P:problem:kreska pseudotaktowa	!
1D	#	2dd\	.	2dd\	.	4f#X/	-da-	.	.
.	.	.	.	.	.	8a\L	.	.	.
.	.	.	.	.	.	8g\J	.	.	.
.	.	2r	.	2r	.	4f#X/	.	.	.
.	.	.	.	.	.	4dny/	-bo	.	.
2GG/	6	2r	.	2r	.	4e/	no-	.	.
!	!	!	!	!	!	!LO:TX:t=P:problem:kreska pseudotaktowa	!	!	!
.	.	.	.	.	.	4d/	-men	.	.
!LO:TX:t=P:problem: bc niewyraźne	!	!LO:TX:a:t=6	!	!LO:TX:a:t=10	!	!	!	!	!
2AA/	.	00.r	.	00.r	.	2c#X/	tú-	2r	.
!LO:TX:t=P:problem:kreska pseudotaktowa	!	!	!	!	!	!	!	!	!
1FF#X	6	.	.	.	.	1d	-úm	2a\	et
!	!	!	!	!	!	!	!	!LO:TX:t=P:problem:kreska pseudotaktowa	!
.	.	.	.	.	.	.	.	2a\	laú-
=52-	=52-	=52-	=52-	=52-	=52-	=52-	=52-	=52-	=52-
1GG	5:6	.	.	.	.	2d/	in	4b\	-da-
.	.	.	.	.	.	.	.	8dd\L	.
.	.	.	.	.	.	.	.	8cc\J	.
!	!	!	!	!	!	!LO:TX:t=P:problem:kreska pseudotaktowa	!	!	!
.	.	.	.	.	.	1e	ae-	4b\	.
.	.	.	.	.	.	.	.	4gny/	-bo
2Cny/	6	.	.	.	.	.	.	4a\	no-
!	!	!	!	!	!	!	!	!LO:TX:t=P:problem:kreska pseudotaktowa	!
.	.	.	.	.	.	.	.	4g/	-men
!LO:TX:t=P:problem:kreska pseudotaktowa	!	!	!	!	!	!	!	!	!
1.D	#	.	.	.	.	2.d/	-ter-	2.f#X/	tú-
.	.	.	.	.	.	4e/	.	4g/	-úm
.	.	.	.	.	.	4f#X/	.	4a\	in
!	!	!	!	!	!	!LO:TX:t=P:problem:kreska pseudotaktowa	!	!LO:TX:t=P:problem:kreska pseudotaktowa	!
.	.	.	.	.	.	4g/	.	4b\	ae-
=53-	=53-	=53-	=53-	=53-	=53-	=53-	=53-	=53-	=53-
1AA	-	.	.	.	.	2.a\	.	2.cc\	-ter-
.	.	.	.	.	.	4g/	.	4b\	.
2A\	6	.	.	.	.	4a\	.	4cc\	.
!	!	!	!	!	!	!LO:TX:t=P:problem:kreska pseudotaktowa	!	!LO:TX:t=P:problem:kreska pseudotaktowa	!
.	.	.	.	.	.	4b\	.	4dd\	.
2E\	6	0.r	.	00.r	.	4cc\	.	4ee\	.
.	.	.	.	.	.	8b\L	.	8dd\L	.
.	.	.	.	.	.	8a\J	.	8cc\J	.
2G\	.	.	.	.	.	4g/	.	4b\	.
.	.	.	.	.	.	4a\	.	4cc\	.
!	!	!	!	!	!	!LO:TX:t=P:problem:kreska pseudotaktowa	!	!LO:TX:t=P:problem:kreska pseudotaktowa	!
4GG/	.	.	.	.	.	(2b\	.	(2dd\	.
!LO:TX:t=P:problem:kreska pseudotaktowa	!	!	!	!	!	!	!	!	!
4AA/	.	.	.	.	.	.	.	.	.
!	!	!	!	!	!	!	!	!LO:LB:g=original	!
=54-	=54-	=54-	=54-	=54-	=54-	=54-	=54-	=54-	=54-
!	!	!LO:TX:t=P:problem:kreska pseudotaktowa	!	!	!	!	!	!	!
4BB/	5:6	.	.	.	.	4b\)	.	4dd\)	.
4C/	.	.	.	.	.	8a\L	.	8cc\L	.
!	!	!	!	!	!	!LO:SIC:v:t=custos f	!	!	!
.	.	.	.	.	.	8g\J	.	8b\J	.
!	!	!	!	!	!	!LO:LB:g=original	!	!	!
2D/	#	.	.	.	.	4f#X/	.	4a\	.
.	.	.	.	.	.	4g/	.	4b\	.
!LO:TX:t=P:problem:kreska pseudotaktowa	!	!	!	!	!	!LO:TX:t=P:problem:kreska pseudotaktowa	!	!LO:TX:t=P:problem:kreska pseudotaktowa	!
2AA/	-	.	.	.	.	2a\	.	2cc\	-núm
2BB/	.	2r	.	.	.	2d/	-núm	2.b\	in
2C/	.	2r	.	.	.	4g/	jn	.	.
.	.	.	.	.	.	4g/	ae-	4a\	ae-
2D/	.	4a/	.	.	.	2f#X/	-ter-	2a\	-ter-
!	!	!LO:TX:t=P:problem:kreska pseudotaktowa	!	!	!	!	!	!	!
.	.	4a/	.	.	.	.	.	.	.
=55-	=55-	=55-	=55-	=55-	=55-	=55-	=55-	=55-	=55-
1GG	.	4b/	.	.	.	2g/	-núm	2g/	-núm,
.	.	8dd\L	.	.	.	.	.	.	.
.	.	8ccny\J	.	.	.	.	.	.	.
.	.	4b/	.	.	.	2r	.	2r	.
.	.	4gny/	.	.	.	.	.	.	.
!LO:TX:t=P:problem:kreska pseudotaktowa	!	!	!	!	!	!LO:TX:t=P:problem:kreska pseudotaktowa	!	!LO:TX:t=P:problem:kreska pseudotaktowa	!
2C/	6	4a/	.	.	.	2r	.	2r	.
!	!	!LO:TX:t=P:problem:kreska pseudotaktowa	!	!	!	!	!	!	!
.	.	4g/	.	.	.	.	.	.	.
!LO:TX:t=P:problem:kreska pseudotaktowa	!	!	!	!	!	!	!	!	!
1.D	#	4f#X/	.	0.r	.	2r	.	2r	.
.	.	4dny/	.	.	.	.	.	.	.
.	.	2.dd\	.	.	.	2f#X/	et	2a\	et
!	!	!	!	!	!	!LO:TX:t=P:problem:kreska pseudotaktowa	!	!	!
.	.	.	.	.	.	2f#/	laú-	2a\	laú-
!	!	!LO:TX:t=P:problem:kreska pseudotaktowa	!	!	!	!	!	!	!
.	.	4cc\	.	.	.	.	.	.	.
!LO:LB:g=original	!	!	!	!LO:LB:g=original	!	!	!	!	!
=56-	=56-	=56-	=56-	=56-	=56-	=56-	=56-	=56-	=56-
!	!	!	!	!LO:TX:t=P:problem:kreska pseudotaktowa	!	!	!	!	!
1.GG	.	2b/	.	.	.	4g/	-da-	4b\	-da-
.	.	.	.	.	.	8b\L	.	8dd\L	.
.	.	.	.	.	.	8a\J	.	8cc\J	.
.	.	1gg	.	.	.	4g/	.	4b\	.
.	.	.	.	.	.	4d/	-bo	4g/	-bo
.	.	.	.	.	.	4g/	no-	4b\	no-
!	!	!	!	!	!	!LO:TX:t=P:problem:kreska pseudotaktowa	!	!LO:TX:t=P:problem:kreska pseudotaktowa	!
.	.	.	.	.	.	4g/	-men	4b\	-men
2D/	#	1.r	.	2dd\	.	2f#X/	tú-	4a\	tú-
.	.	.	.	.	.	.	.	4a\	-úm,
!LO:TX:t=P:problem:kreska pseudotaktowa	!	!	!	!	!	!	!	!	!
1BB	.	.	.	2dd\	.	1g	-úm	2dd\	et
!	!	!	!	!LO:TX:t=P:problem:kreska pseudotaktowa	!	!	!	!LO:TX:t=P:problem:kreska pseudotaktowa	!
.	.	.	.	2gg\	.	.	.	2dd\	laú-
=57-	=57-	=57-	=57-	=57-	=57-	=57-	=57-	=57-	=57-
1C	.	2r	.	4ccny\	.	2r	.	4ee\	-da-
.	.	.	.	8ee\L	.	.	.	8gg\L	.
.	.	.	.	8dd\J	.	.	.	8ff\J	.
.	.	2r	.	4cc\	.	2r	.	4ee\	.
.	.	.	.	4g/	.	.	.	4cc\	-bo
!	!	!LO:TX:t=P:problem:kreska pseudotaktowa	!	!LO:TX:t=P:problem:kreska pseudotaktowa	!	!	!	!	!
2F#X\	6	2d/	.	2a/	.	4a\	jn	4dd\	no-
!	!	!	!	!	!	!	!	!LO:TX:t=P:problem:kreska pseudotaktowa	!
!	!	!	!	!	!	!	!	!LO:SIC:v:t=custos b	!
.	.	.	.	.	.	4a\	ae-	4cc\	-men
!LO:TX:t=P:problem:kreska pseudotaktowa	!	!	!	!	!	!	!	!LO:LB:g=original	!
1.G	.	1d	.	4b/	.	2.g/	-ter-	2.b\	tú-
.	.	.	.	4cc\	.	.	.	.	.
.	.	.	.	2dd\	.	.	.	.	.
.	.	.	.	.	.	4a\	.	4cc\	-úm
!	!	!LO:SIC:v:t=custos d	!	!	!	!	!	!	!
.	.	2d/	.	2gg\	.	4b\	.	4dd\	in
!	!	!	!	!	!	!LO:TX:t=P:problem:kreska pseudotaktowa	!	!	!
!	!	!	!	!	!	!LO:SIC:v:t=custos dd	!	!LO:TX:t=P:problem:kreska pseudotaktowa	!
.	.	.	.	.	.	4cc\	.	4ee\	ae-
!	!	!LO:LB:g=original	!	!	!	!LO:LB:g=original	!	!	!
=58-	=58-	=58-	=58-	=58-	=58-	=58-	=58-	=58-	=58-
1D	.	2d/	.	2ffny\	.	4dd\	.	4ff\	-ter-
.	.	.	.	.	.	4cc\	.	4ee\	.
.	.	2r	.	2aa\	.	4b\	.	4dd\	.
.	.	.	.	.	.	4a\	.	4cc\	.
!	!	!	!	!LO:TX:t=P:problem:kreska pseudotaktowa	!	!	!	!	!
2E\	# 4:3	4ee\	.	2ee\	.	2g#X/	.	2b\	.
!	!	!LO:TX:t=P:problem:kreska pseudotaktowa	!	!	!	!	!	!	!
.	.	4dd\	.	.	.	.	.	.	.
!LO:TX:t=P:problem:kreska pseudotaktowa	!	!	!	!	!	!	!	!	!
1.AA	#	2.cc#X\	.	2ee\	.	2a\	-núm	2a\	-núm
.	.	.	.	2r	.	2r	.	2r	.
.	.	4dd\	.	.	.	.	.	.	.
!	!	!	!	!	!	!	!	!LO:TX:t=P:problem:kreska pseudotaktowa	!
.	.	4ee\	.	4aa\	.	2r	.	2r	.
!	!	!LO:TX:t=P:problem:kreska pseudotaktowa	!	!	!	!	!	!	!
.	.	4cc#X\	.	4gg\	.	.	.	.	.
=59-	=59-	=59-	=59-	=59-	=59-	=59-	=59-	=59-	=59-
!	!	!	!	!	!	!LO:TX:t=P:problem:kreska pseudotaktowa	!	!	!
1.D	#	2dd\	.	2.ff#X\	.	1.r	.	2r	.
.	.	2.a/	.	.	.	.	.	2r	.
.	.	.	.	4gg\	.	.	.	.	.
.	.	.	.	4aa\	.	.	.	4dd\	no-
!	!	!LO:TX:t=P:problem:kreska pseudotaktowa	!	!LO:TX:t=P:problem:kreska pseudotaktowa	!	!	!	!	!
.	.	4a/	.	4ff#X\	.	.	.	4cc\	-men
!LO:TX:t=P:problem:kreska pseudotaktowa	!	!	!	!	!	!	!	!	!
1.G	.	4b/	.	2gg\	.	2r	.	2.b\	tú-
.	.	4a/	.	.	.	.	.	.	.
.	.	2g/	.	2.dd\	.	2r	.	.	.
.	.	.	.	.	.	.	.	4cc\	-úm
.	.	1gg\	.	.	.	4gny/	no-	4dd\	jn
!	!	!	!	!	!	!	!	!LO:TX:t=P:problem:kreska pseudotaktowa	!
.	.	.	.	4dd\	.	4fny/	-men	4b\	ae-
=60-	=60-	=60-	=60-	=60-	=60-	=60-	=60-	=60-	=60-
1.C	.	.	.	1ee	.	2.e/	tú-	2cc\	-ter-
!	!	!LO:TX:t=P:problem:kreska pseudotaktowa	!	!	!	!	!	!	!
.	.	1g	.	.	.	.	.	2cc\	-núm
.	.	.	.	.	.	4f/	-úm	.	.
!	!	!	!	!LO:TX:t=P:problem:kreska pseudotaktowa	!	!	!	!	!
!	!	!	!	!LO:SIC:v:t=custos gg	!	!	!	!	!
.	.	.	.	2ee\	.	4g/	jn	4cc\	no-
!	!	!	!	!	!	!LO:TX:t=P:problem:kreska pseudotaktowa	!	!LO:TX:t=P:problem:kreska pseudotaktowa	!
.	.	.	.	.	.	4e/	ae-	4b\	-men
!	!	!	!	!LO:LB:g=original	!	!	!	!	!
1D	#	2r	.	2r	.	2.f#X/	-ter-	2a\	tú-
.	.	2.dd\	.	2aa\	.	.	.	2a\	-úm
.	.	.	.	.	.	4f#/	-núm	.	.
!	!	!	!	!	!	!	!	!LO:TX:t=P:problem:kreska pseudotaktowa	!
!LO:TX:t=P:problem:kreska pseudotaktowa	!	!	!	!	!	!LO:TX:t=P:problem:kreska pseudotaktowa	!	!LO:SIC:v:t=custos cc	!
2BB/	6	.	.	4gg\	.	2g/	jn	2dd\	in
!	!	!	!	!LO:TX:t=P:problem:# above	!	!	!	!	!
.	.	4dd\	.	4ff#X\	.	.	.	.	.
!	!	!	!	!	!	!	!	!LO:LB:g=original	!
=61-	=61-	=61-	=61-	=61-	=61-	=61-	=61-	=61-	=61-
2C/	.	2g/	.	2ee\	.	2g/	ae-	(4cc\	ae-
.	.	.	.	.	.	.	.	4b\)	.
!	!	!	!	!	!	!	!	!LO:TX:t=P:problem:kreska pseudotaktowa	!
1D	4:3	2d/	.	2.dd\	.	2.g/	-ter-	1a	-ter-
!	!	!LO:TX:t=P:problem:kreska pseudotaktowa	!	!	!	!	!	!	!
.	.	2a/	.	.	.	.	.	.	.
!	!	!	!	!LO:TX:t=P:problem:kreska pseudotaktowa	!	!LO:TX:t=P:problem:kreska pseudotaktowa	!	!	!
.	.	.	.	4dd\	.	4f#X/	-núm	.	.
!LO:TX:t=P:problem:kreska pseudotaktowa	!	!	!	!	!	!	!	!	!
1.GG	.	2.g/	.	1dd	.	2g/	.	2b\	-núm
.	.	.	.	.	.	2.g/	in	2.b\	no-
.	.	4a/	.	.	.	.	.	.	.
!	!	!LO:TX:t=P:problem:kreska pseudotaktowa	!	!	!	!	!	!	!
!	!	!LO:SIC:v:t=custos cc	!	!	!	!	!	!	!
.	.	2b/	.	2dd\	.	.	.	.	.
!	!	!	!	!	!	!LO:TX:t=P:problem:kreska pseudotaktowa	!	!LO:TX:t=P:problem:kreska pseudotaktowa	!
.	.	.	.	.	.	4g/	ae-	4b\	-men
!	!	!LO:LB:g=original	!	!	!	!	!	!	!
=62-	=62-	=62-	=62-	=62-	=62-	=62-	=62-	=62-	=62-
2.AA/	# 6	1ccny	.	2a/	.	2.f#X/	-ter-	2.a\	tú-
.	.	.	.	2aa\	.	.	.	.	.
4BB/	.	.	.	.	.	4f#/	-núm	4g/	-úm
!LO:TX:t=P:problem:kreska pseudotaktowa	!	!	!	!	!	!	!	!	!
!LO:SIC:v:t=custos AA	!	!	!	!LO:TX:t=P:problem:kreska pseudotaktowa	!	!	!	!LO:TX:t=P:problem:kreska pseudotaktowa	!
2C/	.	2cc\	.	2ee\	.	2e/	jn	2g/	in
!LO:LB:g=original	!	!	!	!	!	!LO:LB:g=original	!	!	!
2AA/	.	2cc\	.	2ff#X\	.	2e/	ae-	2f#X/	ae-
!	!	!LO:TX:t=P:problem:kreska pseudotaktowa	!	!	!	!	!	!	!
1BB	.	1b	.	1ff#	.	(>2.e/	-ter-	1f#	-ter-
.	.	.	.	.	.	4d#X/)	.	.	.
=63||-	=63||-	=63||-	=63||-	=63||-	=63||-	=63||-	=63||-	=63||-	=63||-
*M2/1	*	*M2/1	*	*M2/1	*	*M2/1	*	*M2/1	*
*met(C|)	*	*met(C|)	*	*met(C|)	*	*met(C|)	*	*met(C|)	*
1E	-	2b/	.	2gg\	.	2e/	-núm,	2e/	-núm,
.	.	2r	.	2r	.	2r	.	2b\	Re-
!	!	!LO:TX:a:t=10	!	!LO:TX:a:t=10	!	!	!	!	!
2.E\	6	00r	.	00r	.	1r	.	4.b\	-dem-
.	.	.	.	.	.	.	.	8e/	-ptor
!	!	!	!	!	!	!	!	!LO:TX:t=P:problem:kreska pseudotaktowa	!
.	.	.	.	.	.	.	.	2cc\	De-
!LO:TX:t=P:problem:kreska pseudotaktowa	!	!	!	!	!	!	!	!	!
4F#X\	.	.	.	.	.	.	.	.	.
=64-	=64-	=64-	=64-	=64-	=64-	=64-	=64-	=64-	=64-
1G	.	.	.	.	.	2r	.	2b\	-ús
.	.	.	.	.	.	4r	.	4r	.
.	.	.	.	.	.	8g/	Qúi	8b\	qúi
!	!	!	!	!	!	!	!	!LO:TX:t=P:problem:kreska pseudotaktowa	!
!	!	!	!	!	!	!LO:TX:t=P:problem:kreska pseudotaktowa	!	!LO:SIC:v:t=custos a	!
.	.	.	.	.	.	8g/	es	8b\	es
!	!	!	!	!	!	!	!	!LO:LB:g=original	!
4d\	#	.	.	.	.	4f#X/	vi-	4a\	vi-
4B\	# 3	.	.	.	.	8d#X/	-ta	8b\	-ta
.	.	.	.	.	.	8d#/	vi-	8b\	vi-
!LO:TX:t=P:problem:kreska pseudotaktowa	!	!	!	!	!	!	!	!	!
2cny\	7:6	.	.	.	.	4.e/	-úen-	4.b\	-úen-
!	!	!	!	!	!	!LO:TX:t=P:problem:kreska pseudotaktowa	!	!LO:TX:t=P:problem:kreska pseudotaktowa	!
.	.	.	.	.	.	8e/	-ti-	8a\	-ti-
=65-	=65-	=65-	=65-	=65-	=65-	=65-	=65-	=65-	=65-
4B#X\	5	.	.	.	.	4d#X/	-úm	4b\	-úm
4BB#X/	.	.	.	.	.	8r	.	8r	.
.	.	.	.	.	.	8b\	et	8dd\	et
4C/	6:5	.	.	.	.	8a\	ſa-	8cc\	ſa-
.	.	.	.	.	.	8g/	-l(ús)	8b\	-l(ús)
!LO:TX:t=P:problem:kreska pseudotaktowa	!	!	!	!	!	!	!	!	!
4C#X/	.	.	.	.	.	8g/	Mo-	8b\	mo-
!	!	!	!	!	!	!LO:TX:t=P:problem:kreska pseudotaktowa	!	!LO:TX:t=P:problem:kreska pseudotaktowa	!
.	.	.	.	.	.	8g/	-ri-	8a\	-ri-
2D/	4:3	00r	.	00r	.	(4.g/	-en-	4.a\	-en-
.	.	.	.	.	.	8f#X/)	-ti-	8a\	-ti-
!	!	!	!	!	!	!LO:TX:t=P:problem:kreska pseudotaktowa	!	!	!
2GG/	.	.	.	.	.	2g/	-úm	2b\	-úm
!	!	!	!	!	!	!LO:LB:g=original	!	!	!
=66-	=66-	=66-	=66-	=66-	=66-	=66-	=66-	=66-	=66-
2G\	.	.	.	.	.	4r	.	1r	.
.	.	.	.	.	.	8b\	qúi	.	.
.	.	.	.	.	.	8b\	es	.	.
4A\	#	.	.	.	.	4cc#X\	vi-	.	.
!LO:TX:t=P:problem:kreska pseudotaktowa	!	!	!	!	!	!	!	!	!
4Bny\	#	.	.	.	.	8dd#X\	-ta	.	.
!	!	!	!	!	!	!LO:TX:t=P:problem:kreska pseudotaktowa	!	!	!
.	.	.	.	.	.	8dd#\	vi-	.	.
2c\	.	.	.	.	.	8.ee\	-úen-	2r	.
.	.	.	.	.	.	16ee\	-ti-	.	.
.	.	.	.	.	.	4ee\	-úm	.	.
2.c\	#	.	.	.	.	4r	.	4r	.
.	.	.	.	.	.	8e/	qúi	8g/	qúi
!	!	!	!	!	!	!LO:TX:t=P:problem:kreska pseudotaktowa	!	!LO:TX:t=P:problem:kreska pseudotaktowa	!
.	.	.	.	.	.	8e/	es	8g/	es
=67-	=67-	=67-	=67-	=67-	=67-	=67-	=67-	=67-	=67-
.	.	.	.	.	.	4f#X/	vi-	4a\	vi-
4B\	6 4	.	.	.	.	8g/	-ta	8b\	-ta
.	.	.	.	.	.	8g/	vi-	8b\	vi-
4A\	6	.	.	.	.	4a\	-úen-	4.cc\	-úen-
!LO:TX:t=P:problem:kreska pseudotaktowa	!	!	!	!	!	!	!	!	!
!LO:SIC:v:t=custos G	!	!	!	!	!	!LO:TX:t=P:problem:kreska pseudotaktowa	!	!	!
4d\	7	.	.	.	.	4f#X/	-ti-	.	.
!	!	!	!	!	!	!	!	!LO:TX:t=P:problem:kreska pseudotaktowa	!
!	!	!	!	!	!	!	!	!LO:SIC:v:t=custos b	!
.	.	.	.	.	.	.	.	8cc\	-ti-
!LO:LB:g=original	!	!	!	!	!	!	!	!LO:LB:g=original	!
2G\	.	0r	.	0r	.	4g/	-úm	4b\	-úm
.	.	.	.	.	.	8r	.	8r	.
.	.	.	.	.	.	8g/	et	8b\	et
!LO:TX:t=P:problem:kreska pseudotaktowa	!	!	!	!	!	!	!	!	!
2A\	# 6	.	.	.	.	4.f#X/	ſa-	4.a\	ſa-
!	!	!	!	!	!	!LO:SIC:v:t=custos d	!	!LO:TX:t=P:problem:kreska pseudotaktowa	!
.	.	.	.	.	.	8e/	-l(ús)	8a\	-l(ús)
!	!	!	!	!	!	!LO:LB:g=original	!	!	!
=68-	=68-	=68-	=68-	=68-	=68-	=68-	=68-	=68-	=68-
!	!	!LO:TX:t=P:problem:kreska pseudotaktowa	!	!LO:TX:t=P:problem:kreska pseudotaktowa	!	!	!	!	!
1B	7:6:# #3:4:3	.	.	.	.	4d#X/	mo-	4.a\	mo-
.	.	.	.	.	.	4e/	-ri-	.	.
.	.	.	.	.	.	.	.	8g/	-ri-
.	.	.	.	.	.	4.e/	-en-	4.f#X/	-en-
.	.	.	.	.	.	8d#X/	-ti-	8f#/	-ti-
2.c\	6 4	4r	.	4r	.	2e/	-úm	2e/	-úm
.	.	8ee\L	.	8gg\L	.	.	.	.	.
.	.	8ee\J	.	8gg\J	.	.	.	.	.
.	.	4ff#X\	.	4aa\	.	2r	.	2r	.
!LO:TX:t=P:problem:kreska pseudotaktowa	!	!LO:TX:t=P:problem:kreska pseudotaktowa	!	!LO:TX:t=P:problem:kreska pseudotaktowa	!	!	!	!	!
4B\	.	4gg\	.	4bb\	.	.	.	.	.
=69-	=69-	=69-	=69-	=69-	=69-	=69-	=69-	=69-	=69-
!	!	!	!	!	!	!LO:TX:b:t=5	!	!LO:TX:b:t=5	!
4A\	.	4aa\	.	4.ccc\	.	00r	.	00r	.
4d\	7	4ff#X\	.	.	.	.	.	.	.
.	.	.	.	8ccc\	.	.	.	.	.
2G\	.	4gg\	.	4bb\	.	.	.	.	.
.	.	8dd\L	.	8bb\L	.	.	.	.	.
!	!	!	!	!LO:TX:t=P:problem:kreska pseudotaktowa	!	!	!	!	!
!	!	!LO:TX:t=P:problem:kreska pseudotaktowa	!	!LO:SIC:v:t=custos aa	!	!	!	!	!
.	.	8dd\J	.	8bb\J	.	.	.	.	.
!	!	!	!	!LO:LB:g=original	!	!	!	!	!
2Cny/	6:5	4cc\	.	4aa\	.	.	.	.	.
.	.	4b/	.	4gg\	.	.	.	.	.
!LO:TX:t=P:problem:kreska pseudotaktowa	!	!	!	!	!	!	!	!	!
2D/	4:3	4.a/	.	4.gg\	.	.	.	.	.
!	!	!LO:TX:t=P:problem:kreska pseudotaktowa	!	!LO:TX:t=P:problem:kreska pseudotaktowa	!	!	!	!	!
.	.	8a/	.	8ff#X\	.	.	.	.	.
=70-	=70-	=70-	=70-	=70-	=70-	=70-	=70-	=70-	=70-
!	!	!	!	!	!	!LO:TX:t=P:problem:kreska pseudotaktowa	!	!	!
2.G\	6 4	4b/	.	4gg\	.	.	.	.	.
.	.	8b/L	.	8dd\L	.	.	.	.	.
.	.	8b/J	.	8dd\J	.	.	.	.	.
.	.	4cc#X\	.	4ee\	.	.	.	.	.
!	!	!LO:SIC:v:t=custos ee	!	!LO:TX:t=P:problem:kreska pseudotaktowa	!	!	!	!	!
4F#X\	6	4dd\	.	4ff#X\	.	.	.	.	.
!	!	!LO:LB:g=original	!	!	!	!	!	!	!
4E\	.	4ee\	.	4.gg\	.	.	.	.	.
4A\	7	4cc#X\	.	.	.	.	.	.	.
.	.	.	.	8gg\	.	.	.	.	.
!LO:TX:t=P:problem:kreska pseudotaktowa	!	!	!	!	!	!	!	!	!
2D/	#	4dd\	.	4ff#X\	.	.	.	.	.
.	.	8dd\L	.	8aa\L	.	.	.	.	.
!	!	!LO:TX:t=P:problem:kreska pseudotaktowa	!	!LO:TX:t=P:problem:kreska pseudotaktowa	!	!	!	!	!
.	.	8cc#\J	.	8aa\J	.	.	.	.	.
=71-	=71-	=71-	=71-	=71-	=71-	=71-	=71-	=71-	=71-
!	!	!	!	!	!	!	!	!LO:TX:t=P:problem:kreska pseudotaktowa	!
4G\	.	8b\L	.	4.gg\	.	1r	.	1r	.
.	.	8ccny\J	.	.	.	.	.	.	.
4D/	.	2dd\	.	.	.	.	.	.	.
.	.	.	.	8ff#X\	.	.	.	.	.
2A\	4:3	.	.	4.ee\	.	.	.	.	.
!	!	!LO:TX:t=P:problem:kreska pseudotaktowa	!	!	!	!	!	!	!
.	.	4cc#X\	.	.	.	.	.	.	.
!	!	!	!	!LO:TX:t=P:problem:kreska pseudotaktowa	!	!	!	!	!
.	.	.	.	8ee\	.	.	.	.	.
2D/	#	2dd\	.	2ff#X\	.	4r	.	4r	.
.	.	.	.	.	.	4fny/	et	4a\	et
!LO:TX:t=P:problem:kreska pseudotaktowa	!	!	!	!	!	!	!	!	!
!LO:SIC:v:t=custos C	!	!	!	!	!	!	!	!	!
2G\	.	4r	.	4r	.	4g/	ſa-	4b\	ſa-
!	!	!LO:TX:t=P:problem:kreska pseudotaktowa	!	!LO:TX:t=P:problem:kreska pseudotaktowa	!	!LO:TX:t=P:problem:kreska pseudotaktowa	!	!LO:TX:t=P:problem:kreska pseudotaktowa	!
.	.	4b/	.	4dd\	.	4g/	-l(ús)	4b\	-l(ús)
!LO:LB:g=original	!	!	!	!	!	!	!	!	!
=72-	=72-	=72-	=72-	=72-	=72-	=72-	=72-	=72-	=72-
2C/	.	4ccny\	.	4ee\	.	4r	.	4r	.
.	.	8cc\L	.	8ee\L	.	8r	.	8r	.
.	.	8cc\J	.	8gg\J	.	8e/	et	8g/	et
!	!	!	!	!LO:TX:t=P:problem:kreska pseudotaktowa	!	!	!	!	!
!	!	!LO:TX:t=P:problem:kreska pseudotaktowa	!	!LO:SIC:v:t=custos aa	!	!	!	!	!
(2AA/	.	2cc\	.	(2aa\	.	4.a\	ſa-	4.cc\	ſa-
!	!	!	!	!	!	!LO:TX:t=P:problem:kreska pseudotaktowa	!	!LO:TX:t=P:problem:kreska pseudotaktowa	!
.	.	.	.	.	.	8g/	-l(ús)	8b\	-l(ús)
!LO:TX:t=P:problem:kreska pseudotaktowa	!	!	!	!	!	!	!	!	!
!	!	!	!	!LO:LB:g=original	!	!	!	!	!
1AA)	8:7 #6:5	1cc	.	4aa\)	.	2f#X/	mo-	2a\	mo-
.	.	.	.	4bb\	.	.	.	.	.
!	!	!	!	!LO:TX:t=P:problem:kreska pseudotaktowa	!	!	!	!	!
.	.	.	.	(2ccc\	.	2e/	-ri-	2g/	-ri-
=73-	=73-	=73-	=73-	=73-	=73-	=73-	=73-	=73-	=73-
1BBny	4:3	2r	.	4ccc\)	.	2e/	-en-	2.f#X/	-en-
.	.	.	.	4bb\	.	.	.	.	.
.	.	2b/	.	4.bb\	.	2d#X/	-ti-	.	.
.	.	.	.	.	.	.	.	4f#/	-ti-
.	.	.	.	8aa\	.	.	.	.	.
0E	.	0b	.	0gg#X	.	0e	-úm	0g#X	-úm
=||;;74	=||74	=||;;74	=||74	=||;;74	=||74	=||;;74	=||;;74	=||;;74	=||;;74
*-	*-	*-	*-	*-	*-	*-	*-	*-	*-
!!!RDF**kern: > = above
!!!RDF**kern: < = below
!!!system-decoration: [(s1,s2)][(s3,s4)][(s5)]
!!!ENC: Andrzej Gręziak
!!!END: 2021-01-27
!!!ENC: Urszula Świątek
!!!END: 2022-02-22
!!!YEC: Copyright 2022 Narodowy Instytut Fryderyka Chopina (https://polishscores.org)
!!!YEM: License CC-BY-4.0 (https://creativecommons.org/licenses/by/4.0)
